!!!!SEGMENT: pl-cz--iii-451--001-001_maader-ludwik--missa-g-kyrie.krn
!!!cenid: 18xx:961
!!!COM: Maader, Ludwik
!!!COM-rismID: pe30020328
!!!CDT: <1794->1798
!!!CNT:
!!!OPR: Missa G
!!!OTL: Kyrie
!!!OMV: 001
!!!PDT: 1815
!!!AGN: Sacred; Mass
!!!SMS-siglum: PL-CZ
!!!SMS-shelfmark: III-451
!!!SMS-shelfwork: 001-001 M
!!!SMS-variant:
!!!SMS-altvar:
!!!NIFC-rismSourceID: 300000763
!!!NIFC-rismChildID: 300000763
!!!NIFC-islandoraID: pl-cz:38436
!!!URL-pdf-islandora: https://repozytorium.nifc.pl/islandora/object/pl-cz%3A38436/datastream/PDF/view
!!!URL-scan: https://polish.musicsources.pl/pl/lokalizacje/galeria/rekopisy/6930/1 @EN{Scan on Polish Music Sources Website} @PL{Skany w portalu Dziedzictwo Muzyki Polskiej w otwartym dostępie}
!!!IIIF:
!!!ONB-nifc: UWAGA: części Mszy: Kyrie, Gloria, Credo, Et incarnatus, Sanctus, Pleni sunt, Benedicuts, Agnus Dei
!!!AIN: 1 bass 2 cor 2 flt 2 organ 2 soprn 2 violn
!!!key: G
**kern	**kern	**text	**dynam	**kern	**dynam	**kern	**dynam	**kern	**text	**kern	**text	**kern	**text	**kern	**kern	**kern	**dynam	**kern	**dynam
*part11	*part10	*part10	*part10	*part9	*part9	*part8	*part8	*part7	*part7	*part6	*part6	*part5	*part5	*part4	*part3	*part2	*part2	*part1	*part1
*staff11	*staff10	*staff10	*	*staff9	*	*staff8	*	*staff7	*staff7	*staff6	*staff6	*staff5	*staff5	*staff4	*staff3	*staff2	*	*staff1	*
*I"ORGANO CONCERTANDO	*	*	*	*I"Violino Secondo	*	*I"Violino Primo	*	*I"Basso	*	*I"Canto Secondo	*	*I"Canto Primo	*	*I"in g Cornu Secondo	*I"in g Cornu Primo	*I"flauto Secundo	*	*I"flauto Primo	*
*I'org	*	*	*	*I'vl II	*	*I'vl I	*	*I'B	*	*I'S II	*	*I'S I	*	*I'cor II in G	*I'cor I in G	*I'fl II	*	*I'fl I	*
*ICklav	*ICklav	*	*	*ICstr	*	*ICstr	*	*ICvox	*	*ICvox	*	*ICvox	*	*ICbras	*ICbras	*ICww	*	*ICww	*
*Iorgan	*Iorgan	*	*	*Ivioln	*	*Ivioln	*	*Ibass	*	*Isoprn	*	*Isoprn	*	*Icor	*Icor	*Iflt	*	*Iflt	*
*clefF4	*clefG2	*	*	*clefG2	*	*clefG2	*	*clefF4	*	*clefC1	*	*clefC1	*	*clefG2	*clefG2	*clefG2	*	*clefG2	*
*	*	*	*	*	*	*	*	*	*	*	*	*	*	*ITrd3c5	*ITrd3c5	*	*	*	*
*G:	*G:	*	*	*G:	*	*G:	*	*G:	*	*G:	*	*G:	*	*G:	*G:	*G:	*	*G:	*
*k[b-]	*k[b-]	*	*	*k[f#]	*	*k[f#]	*	*k[f#]	*	*k[f#]	*	*k[f#]	*	*k[f#]	*k[f#]	*k[f#]	*	*k[f#]	*
*M3/4	*M3/4	*	*	*M3/4	*	*M3/4	*	*M3/4	*	*M3/4	*	*M3/4	*	*M3/4	*M3/4	*M3/4	*	*M3/4	*
=1	=1	=1	=1	=1	=1	=1	=1	=1	=1	=1	=1	=1	=1	=1	=1	=1	=1	=1	=1
!	!	!	!	!	!	!	!	!	!	!	!	!	!	!	!	!	!	!LO:TX:t=P:global:problem=caudy z prawej strony	!
!	!	!	!	!	!	!	!	!	!	!	!	!	!	!	!	!	!	!LO:TX:a:B:t=Andante	!
!	!	!	!LO:DY:a	!LO:TX:a:B:t=Andante	!	!LO:TX:a:B:t=Andante	!LO:DY:a	!LO:TX:a:B:t=Andante	!	!LO:TX:a:B:t=Andante	!	!LO:TX:a:B:t=Andante	!	!LO:TX:a:B:t=Andante	!LO:TX:a:B:t=Andante	!LO:TX:a:B:t=Andante	!LO:DY:a	!	!LO:DY:a
!	!	!	!	!	!	!	!LO:DY:t=Piano	!	!	!	!	!	!	!	!	!	!	!	!
!	!	!	!	!	!LO:DY:t=po.	!	!	!	!	!	!	!	!	!	!	!	!	!	!
!	!	!	!LO:DY:t=Pia	!	!	!	!	!	!	!	!	!	!	!	!	!	!LO:DY:t=Pia	!	!LO:DY:t=Pia
4FF/	2c/ 2a	[K]y-	p	2d/	p	2b/	p	4G\	Ky-	2d/	Ky-	2b\	Ky-	2B/	2g\	2gg\	p	2bb\	p
4AA/	.	.	.	.	.	.	.	4B\	.	.	.	.	.	.	.	.	.	.	.
4C/	4B-/ 4g	-rie	.	4c/	.	4a/	.	4d\	-ri-	4c/	-ri-	4a\	-ri-	4d/	4a\	4cc\	.	4aa\	.
=2	=2	=2	=2	=2	=2	=2	=2	=2	=2	=2	=2	=2	=2	=2	=2	=2	=2	=2	=2
4FF/	8f/	.	.	4B/	.	4g/	.	4G\	-e	4B/	-e	4g\	-e	4B/	4g\	4b\	.	4gg\	.
!	!	!	!LO:DY:a	!	!	!	!	!	!	!	!	!	!	!	!	!	!	!	!
!	!	!	!LO:DY:t=for	!	!	!	!	!	!	!	!	!	!	!	!	!	!	!	!
.	(8cc\L	.	f	.	.	.	.	.	.	.	.	.	.	.	.	.	.	.	.
4r	8ff\	.	.	4r	.	4r	.	4r	.	4r	.	4r	.	4r	4r	4r	.	4r	.
.	8aa\	.	.	.	.	.	.	.	.	.	.	.	.	.	.	.	.	.	.
4r	8ccc\	.	.	4r	.	4r	.	4r	.	4r	.	4r	.	4r	4r	4r	.	4r	.
.	8aa\J)	.	.	.	.	.	.	.	.	.	.	.	.	.	.	.	.	.	.
=3	=3	=3	=3	=3	=3	=3	=3	=3	=3	=3	=3	=3	=3	=3	=3	=3	=3	=3	=3
4C/	2g/ 2b-	Ky-	.	2a/	.	2cc/	.	(4D\	Ky-	2a\	Ky-	2cc\	Ky-	2d/	2a\	2aa\	.	2ccc\	.
4E/	.	.	.	.	.	.	.	4F#\)	.	.	.	.	.	.	.	.	.	.	.
4F/	4f/ 4a	-ri-	.	4g/	.	4b/	.	4G\	-ri-	4g\	-ri-	4b\	-ri-	4g\	4b\	4gg\	.	4bb\	.
=4	=4	=4	=4	=4	=4	=4	=4	=4	=4	=4	=4	=4	=4	=4	=4	=4	=4	=4	=4
4C/	8g/	-e	.	4f#/	.	4a/	.	4D\	-e	4f#\	-e	4a\	-e	4d/	4a\	4ff#\	.	4aa\	.
.	(8cc\L	.	.	.	.	.	.	.	.	.	.	.	.	.	.	.	.	.	.
4r	8ee\	.	.	4r	.	4r	.	4r	.	4r	.	4r	.	4r	4r	4r	.	4r	.
.	8gg\	.	.	.	.	.	.	.	.	.	.	.	.	.	.	.	.	.	.
4r	8bb-\	.	.	4r	.	4r	.	4r	.	4r	.	4r	.	4r	4r	4r	.	4r	.
.	8gg\J)	.	.	.	.	.	.	.	.	.	.	.	.	.	.	.	.	.	.
=5	=5	=5	=5	=5	=5	=5	=5	=5	=5	=5	=5	=5	=5	=5	=5	=5	=5	=5	=5
!	!	!	!	!	!	!	!LO:DY:a	!	!	!	!	!	!	!	!	!	!	!	!
!	!	!	!	!	!	!	!LO:DY:t=for	!	!	!	!	!	!	!	!	!	!	!	!
4F\	2a/ 2cc	Ky-	.	2b/	.	2dd\	f	4G\	Ky-	2b\	Ky-	2dd\	Ky-	2g\	2b\	2bb\	.	2ddd\	.
4A\	.	.	.	.	.	.	.	4B\	.	.	.	.	.	.	.	.	.	.	.
4c\	4g/ 4b-	-ri-	.	4a/	.	4cc\	.	4d\	-ri-	4a\	-ri-	4cc\	-ri-	4d/	4a\	4aa\	.	4ccc\	.
!LO:LB:g=original	!	!	!	!	!	!	!	!	!	!	!	!	!	!	!	!	!	!	!
=6	=6	=6	=6	=6	=6	=6	=6	=6	=6	=6	=6	=6	=6	=6	=6	=6	=6	=6	=6
4F\	8a\L	-e	.	4g/	.	4b\	.	4G\	-e	4g\	-e	4b\	-e	4g\	4b\	4gg\	.	4bb\	.
.	8a\ 8cc	.	.	.	.	.	.	.	.	.	.	.	.	.	.	.	.	.	.
4r	8dd\ 8ff	.	.	4r	.	4r	.	4r	.	4r	.	4r	.	4r	4r	4bb\	.	4ddd\	.
.	8cc\ 8ee	.	.	.	.	.	.	.	.	.	.	.	.	.	.	.	.	.	.
4r	8b-\ 8dd	.	.	4r	.	4r	.	4r	.	4r	.	4r	.	4r	4r	(8ddd\L	.	(8eee\L	.
.	8a\J 8cc	.	.	.	.	.	.	.	.	.	.	.	.	.	.	8bb\J)	.	8ddd\J)	.
=7	=7	=7	=7	=7	=7	=7	=7	=7	=7	=7	=7	=7	=7	=7	=7	=7	=7	=7	=7
!	!	!	!	!	!	!	!	!	!	!	!	!	!	!LO:TX:a:t=1	!LO:TX:a:t=1	!	!	!	!
4F\	4a\ 4cc	lei-	.	4b/	.	4dd\	.	4G\	e-	4b\	e-	4dd\	e-	2.r	2.r	4bb`\	.	4ddd\	.
4B-\	4g\ 4b-	.	.	4a/	.	4cc\	.	4c\	.	4a\	.	4cc\	.	.	.	4aa`\	.	4ccc\	.
4Bn\	4f\ 4a	.	.	4g/	.	4b\	.	4c#X\	.	4g\	.	4b\	.	.	.	4gg`\	.	4bb\	.
!	!	!	!	!	!	!	!	!LO:LB:g=original	!	!LO:LB:g=original	!	!LO:LB:g=original	!	!	!	!	!	!	!
=8	=8	=8	=8	=8	=8	=8	=8	=8	=8	=8	=8	=8	=8	=8	=8	=8	=8	=8	=8
4c\	8f\L 8a	.	.	8g/L	.	(8b\L	.	4d\	-lei-	(8g/L	-lei-	(8b\L	-lei-	4r	4r	(8gg\L	.	(8bb\L	.
.	8e\J 8g	.	.	8f#/J	.	8a\J)	.	.	.	8f#/J)	.	8a\J)	.	.	.	8ff#\J)	.	8aa\J)	.
4C/	4e/ 4g	-son	.	4f#/	.	4a`/	.	4D/	-son	4f#/	-son	4g\	-son	8.d/L	8.a\L	4ff#\	.	4aa\	.
.	.	.	.	.	.	.	.	.	.	.	.	.	.	16d/Jk	16a\Jk	.	.	.	.
4C/	4r	.	.	4r	.	4r	.	4r	.	4r	.	4r	.	4d/	4a\	4r	.	4r	.
!	!	!	!	!	!	!	!	!	!	!	!	!	!	!	!	!	!	!LO:LB:g=original	!
!	!	!	!	!	!	!	!	!	!	!	!	!	!	!	!LO:LB:g=original	!	!	!	!
!	!	!	!	!	!	!	!	!	!	!	!	!	!	!LO:LB:g=original	!	!	!	!	!
=9	=9	=9	=9	=9	=9	=9	=9	=9	=9	=9	=9	=9	=9	=9	=9	=9	=9	=9	=9
!	!	!	!	!	!LO:DY:t=for.	!	!	!	!	!	!	!	!	!	!	!	!	!	!
4F\	4a/	Ky-	.	4d/	f	4b\	.	4G\	Ky-	4g/	Ky-	4b\	Ky-	4g\	4g\	4gg`\	.	4bb`\	.
4A\	8a/L	-ri-	.	8d/L	.	(8b/L	.	4B\	.	(8g/L	-ri-	(8b\L	.	4r	4r	(8gg\L	.	(8bb\L	.
.	8f/	-e	.	8B/	.	8g/)	.	.	.	8B/J)	.	8g\J)	.	.	.	8b\)	.	8gg\)	.
4c\	8g/	.	.	8c/	.	(8a/	.	4d\	-ri-	(8c/L	-e	(8a\L	-rie-	4d/	4a\	(8cc\	.	(8aa\	.
.	8e/J	.	.	8A/J	.	8f#/J)	.	.	.	8A/J)	.	8f#\J)	.	.	.	8a\J)	.	8ff#\J)	.
!	!	!	!	!LO:LB:g=original	!	!LO:LB:g=original	!	!	!	!	!	!	!	!	!	!	!	!	!
!	!	!	!	!	!	!	!	!	!	!	!	!	!	!	!	!LO:LB:g=original	!	!	!
=10	=10	=10	=10	=10	=10	=10	=10	=10	=10	=10	=10	=10	=10	=10	=10	=10	=10	=10	=10
4F\	8f/	e	.	4B/	.	4g`/	.	4G\	-e	4B/	-e	4g\	-e	4B/	4g\	4b\	.	4gg\	.
.	(8cc\L	.	.	.	.	.	.	.	.	.	.	.	.	.	.	.	.	.	.
4r	8ff\	.	.	4r	.	4r	.	4r	.	4r	.	4r	.	4r	4r	4r	.	4r	.
.	8aa\	.	.	.	.	.	.	.	.	.	.	.	.	.	.	.	.	.	.
4r	8ccc\	.	.	4r	.	4r	.	4r	.	4r	.	4r	.	4r	4r	4r	.	4r	.
.	8aa\J)	.	.	.	.	.	.	.	.	.	.	.	.	.	.	.	.	.	.
=11	=11	=11	=11	=11	=11	=11	=11	=11	=11	=11	=11	=11	=11	=11	=11	=11	=11	=11	=11
4C\	4b-/	Ky-	.	4a/	.	4cc`\	.	(4D\	Ky-	4a\	Ky-	4cc\	Ky-	4d/	4a\	4bb\	.	4ccc`\	.
4E\	8b-/L	-ri-	.	8a/L	.	(8cc\L	.	4F#\)	.	(8a\L	.	(8cc\L	.	4r	4r	(8aa\L	.	(8ccc\L	.
.	8g/	-e	.	8f#/	.	8a\)	.	.	.	8f#\J)	.	8a\J)	.	.	.	8ff#\J)	.	8aa\)	.
4F\	8a/	.	.	8g/	.	(8b\	.	4G\	-ri-	(8g\L	-ri-	(8b\L	-ri-	4g\	4b\	(8gg\L	.	8bb\	.
.	8f/J	.	.	8e/J	.	8g\J)	.	.	.	8e\J)	.	8g\J)	.	.	.	8ee\J)	.	8gg`\J	.
!LO:LB:g=original	!	!	!	!	!	!	!	!	!	!	!	!	!	!	!	!	!	!	!
=12	=12	=12	=12	=12	=12	=12	=12	=12	=12	=12	=12	=12	=12	=12	=12	=12	=12	=12	=12
4C/	8g/	-e	.	4f#/	.	4a`/	.	4D\	-e	4d/	-e	4a\	-e	4d/	4a\	4ff#\	.	4aa\	.
.	(8cc\L	.	.	.	.	.	.	.	.	.	.	.	.	.	.	.	.	.	.
4r	8ee\	.	.	4r	.	4r	.	4r	.	4r	.	4r	.	4r	4r	4r	.	4r	.
.	8gg\	.	.	.	.	.	.	.	.	.	.	.	.	.	.	.	.	.	.
4r	8bb-\	.	.	4r	.	4r	.	4r	.	4r	.	4r	.	4r	4r	4r	.	4r	.
.	8gg\J)	.	.	.	.	.	.	.	.	.	.	.	.	.	.	.	.	.	.
=13	=13	=13	=13	=13	=13	=13	=13	=13	=13	=13	=13	=13	=13	=13	=13	=13	=13	=13	=13
4F\	4cc\	Ky-	.	4b\	.	4dd`\	.	4G\	Ky-	4b\	Ky-	4dd\	Ky-	4g\	4b\	4bb\	.	4ddd`\	.
4A\	8cc\L	-ri-	.	8b\L	.	(8dd\L	.	4B\	.	(8b\L	.	(8dd\L	.	4r	4r	(8bb\L	.	(8ddd\L	.
.	8a\	-e	.	8g\	.	8b\)	.	.	.	8g\J)	.	8b\J)	.	.	.	8gg\)	.	8bb\)	.
4c\	8b-\	.	.	8a\	.	(8cc\	.	4d\	-ri-	(8a\L	-ri-	(8cc\L	-ri-	4d/	4a\	(8aa\	.	(8ccc\	.
.	8g\J	.	.	8f#\J	.	8a\J)	.	.	.	8f#\J)	.	8a\J)	.	.	.	8ff#\J)	.	8aa\J)	.
=14	=14	=14	=14	=14	=14	=14	=14	=14	=14	=14	=14	=14	=14	=14	=14	=14	=14	=14	=14
4F\	8a\L	-e	.	8g\L	.	(8b\L	.	4G\	-e	(8g`\L	-e	(8b\L	-e	4g\	4b\	4gg\	.	4bb\	.
.	8a\ 8cc	.	.	8b\	.	8dd\)	.	.	.	8b`\J)	.	8dd\J)	.	.	.	.	.	.	.
4r	8dd\ 8ff	.	.	8ee\	.	(8gg\	.	4r	.	(8ee\L	.	(8gg\L	.	4r	4r	4bb\	.	4ddd\	.
.	8cc\ 8ee	.	.	8dd\	.	8ff#\)	.	.	.	8dd\J)	.	8ff#\)	.	.	.	.	.	.	.
4r	8b-\ 8dd	.	.	8cc\	.	(8ee\	.	4r	.	(8cc\L	.	(8ee\	.	4r	4r	8ddd\L	.	(8eee\L	.
.	8a\J 8cc	.	.	8b\J	.	8dd\J)	.	.	.	8b\J)	.	8dd\J)	.	.	.	8bb\J	.	8ddd\J)	.
!	!	!	!	!	!	!	!	!	!	!LO:LB:g=original	!	!LO:LB:g=original	!	!	!	!	!	!	!
=15	=15	=15	=15	=15	=15	=15	=15	=15	=15	=15	=15	=15	=15	=15	=15	=15	=15	=15	=15
!	!	!	!	!	!	!	!	!	!	!	!	!	!	!LO:TX:a:t=1	!LO:TX:a:t=1	!	!	!	!
4F\	4a\ 4cc	e-	.	8r	.	8r	.	4G\	e-	4b`\	e-	4dd\	e-	2.r	2.r	4bb\	.	4ddd\	.
.	.	.	.	8b/	.	8dd`\	.	.	.	.	.	.	.	.	.	.	.	.	.
4B-\	4g\ 4b-	.	.	8r	.	8r	.	4c\	.	4a`\	.	4cc\	.	.	.	4aa\	.	4ccc\	.
.	.	.	.	8a/	.	8cc`\	.	.	.	.	.	.	.	.	.	.	.	.	.
4Bn\	4f\ 4a	.	.	8r	.	8r	.	4c#X\	.	4g`\	.	4b\	.	.	.	4gg\	.	4bb\	.
.	.	.	.	8g/	.	8b`\	.	.	.	.	.	.	.	.	.	.	.	.	.
=16	=16	=16	=16	=16	=16	=16	=16	=16	=16	=16	=16	=16	=16	=16	=16	=16	=16	=16	=16
4c\	8f/L 8a	lei-	.	8g/L	.	(8b\L	.	4d\	-lei-	8g/L	-lei-	(8b\L	-lei-	4r	4r	(8gg\L	.	(8bb\L	.
.	8e/J 8g	.	.	8f#/J	.	8a\J)	.	.	.	8f#/J	.	8a\J)	.	.	.	8ff#\J)	.	8aa\J)	.
4C/	4e/ 4g	-son	.	4f#/	.	4a`/	.	4D/	-son	4d/	-son	4a\	-son	8.d/L	8.a\L	4ff#\	.	4aa\	.
.	.	.	.	.	.	.	.	.	.	.	.	.	.	16d/Jk	16a\Jk	.	.	.	.
4C/	4r	.	.	4r	.	4r	.	4r	.	4r	.	4r	.	4d/	4a\	4r	.	4r	.
=17	=17	=17	=17	=17	=17	=17	=17	=17	=17	=17	=17	=17	=17	=17	=17	=17	=17	=17	=17
!	!LO:TX:t=P:problem=mixed beam	!	!	!	!	!	!	!LO:TX:a:t=1	!	!	!	!	!	!LO:TX:a:t=4	!LO:TX:a:t=4	!	!	!	!
8C\L	4e/ 4g	Chry-	.	4f#/	.	4a/	.	2.r	.	4f#`\	Chry-	4a\	Chry-	2.r	2.r	4ff#\	.	4aa\	.
8c\J	.	.	.	.	.	.	.	.	.	.	.	.	.	.	.	.	.	.	.
!	!LO:TX:t=P:problem=mixed beam	!	!	!	!	!	!	!	!	!	!	!	!	!	!	!	!	!	!
8C\L	4f/ 4a	.	.	4g/	.	4b/	.	.	.	(4g\	-ste	4b\	-ste	.	.	4gg\	.	4bb\	.
8c\J	.	.	.	.	.	.	.	.	.	.	.	.	.	.	.	.	.	.	.
!	!LO:TX:t=P:problem=mixed beam	!	!	!	!	!	!	!	!	!	!	!	!	!	!	!	!	!	!
8C\L	4g/ 4b-	-ste	.	4a/	.	4cc\	.	.	.	4a\)	e-	4cc\	e-	.	.	4aa\	.	4ccc\	.
8c\J	.	.	.	.	.	.	.	.	.	.	.	.	.	.	.	.	.	.	.
!	!	!	!	!	!	!	!	!LO:LB:g=original	!	!	!	!	!	!	!	!	!	!	!
!	!	!	!	!	!	!	!	!	!	!	!	!	!	!	!	!	!	!LO:LB:g=original	!
=18	=18	=18	=18	=18	=18	=18	=18	=18	=18	=18	=18	=18	=18	=18	=18	=18	=18	=18	=18
!	!LO:TX:t=P:problem=mixed beam	!	!	!	!	!	!	!	!	!	!	!	!	!	!	!	!	!	!
8C\L	8e/L 8g#X	e-	.	(8f#/L	.	(8a#X/L	.	8d\	e-	(8f#\L	-lei-	(8a#X\L	-lei-	2.r	2.r	(8ff#\L	.	(8ccc\L	.
8c\J	8f/J 8a	-lei-	.	8g/)	.	8b/J)	.	8d\	-lei-	8g\J)	.	8b\J)	.	.	.	8gg\J)	.	8bb\J)	.
!	!LO:TX:t=P:problem=mixed beam	!	!	!	!	!	!	!	!	!	!	!	!	!	!	!	!	!	!
8C\L	4f/ 4a	-son	.	8g`/	.	8b`/L	.	4d\	-son	4g\	-son	4b\	-son	.	.	2gg\	.	2bb\	.
8c\J	.	.	.	8g`/J	.	8b`/J	.	.	.	.	.	.	.	.	.	.	.	.	.
!	!LO:TX:t=P:problem=mixed beam	!	!	!	!	!	!	!	!	!	!	!	!	!	!	!	!	!	!
8C\L	4r	.	.	4g/	.	4b`/	.	4r	.	4r	.	4r	.	.	.	.	.	.	.
8c\J	.	.	.	.	.	.	.	.	.	.	.	.	.	.	.	.	.	.	.
!LO:LB:g=original	!	!	!	!	!	!	!	!	!	!	!	!	!	!	!	!LO:LB:g=original	!	!	!
=19	=19	=19	=19	=19	=19	=19	=19	=19	=19	=19	=19	=19	=19	=19	=19	=19	=19	=19	=19
*	*^	*	*	*	*	*	*	*	*	*	*	*	*	*	*	*	*	*	*
!	!LO:TX:t=P:problem=mixed beam	!	!	!	!	!	!	!	!LO:TX:a:t=1	!	!	!	!	!	!	!	!	!	!	!
8C\L	8cc/L	4a\	Chry-	.	8b/	.	8dd`\	.	2.r	.	4b\	Chry-	8dd`\L	Chry-	2.r	2.r	8r	.	8r	.
8c\J	16dd/L	.	.	.	8r	.	8r	.	.	.	.	.	(16ee\L	.	.	.	8bb\	.	8ddd\	.
.	16cc/JJ	.	.	.	.	.	.	.	.	.	.	.	16dd\JJ)	.	.	.	.	.	.	.
!	!LO:TX:t=P:problem=mixed beam	!	!	!	!	!	!	!	!	!	!	!	!	!	!	!	!	!	!	!
8C\L	8b-/L	4g\	-ste	.	8a/	.	8cc`\	.	.	.	4a\	.	8cc`\L	-ste	.	.	8r	.	8r	.
8c\J	16cc/L	.	.	.	8r	.	8r	.	.	.	.	.	(16dd\L	.	.	.	8aa\	.	8ccc\	.
.	16b-/JJ	.	.	.	.	.	.	.	.	.	.	.	16cc\JJ)	.	.	.	.	.	.	.
!	!LO:TX:t=P:problem=mixed beam	!	!	!	!	!	!	!	!	!	!	!	!	!	!	!	!	!	!	!
8C\L	8a/L	4f\	e-	.	8g/	.	8b`\	.	.	.	4g\	-ste	8b`\L	.	.	.	8r	.	8r	.
8c\J	16b-/L	.	.	.	8r	.	8r	.	.	.	.	.	(16cc\L	.	.	.	8gg\	.	8bb\	.
.	16a/JJ	.	.	.	.	.	.	.	.	.	.	.	16b\JJ)	.	.	.	.	.	.	.
!	!	!	!	!	!	!	!LO:LB:g=original	!	!	!	!	!	!	!	!	!	!	!	!	!
*	*v	*v	*	*	*	*	*	*	*	*	*	*	*	*	*	*	*	*	*	*
=20	=20	=20	=20	=20	=20	=20	=20	=20	=20	=20	=20	=20	=20	=20	=20	=20	=20	=20	=20
!	!LO:TX:t=P:problem=mixed beam	!	!	!	!	!	!	!	!	!	!	!	!	!	!	!	!	!	!
8C\L	8f/L 8a	-le-	.	8g/L	.	(8b\L	.	8d\	e-	(8g/L	lei-	(8b\L	lei	2.r	2.r	(8gg\L	.	8bb\L	.
8c\J	8e/J 8g	-i-	.	8f#/	.	8a\)	.	8d\	-lei-	8f#/J)	.	8a\J)	.	.	.	8ff#\J)	.	8aa\J	.
!	!LO:TX:t=P:problem=mixed beam	!	!	!	!	!	!	!	!	!	!	!	!	!	!	!	!	!	!
8C\L	4e/	-son	.	8f#/	.	8a`\	.	4d\	-son	4f#/	-son	4a`\	-son	.	.	4ff#\	.	4aa\	.
8c\J	.	.	.	8f#/J	.	8a`\J	.	.	.	.	.	.	.	.	.	.	.	.	.
!	!LO:TX:t=P:problem=mixed beam	!	!	!	!	!	!	!	!	!	!	!	!	!	!	!	!	!	!
8C\L	4r	.	.	4f#`/	.	4a`/	.	4r	.	4r	.	4r	.	.	.	4r	.	4r	.
8c\J	.	.	.	.	.	.	.	.	.	.	.	.	.	.	.	.	.	.	.
!	!	!	!	!LO:LB:g=original	!	!	!	!	!	!	!	!LO:LB:g=original	!	!	!	!	!	!	!
=21	=21	=21	=21	=21	=21	=21	=21	=21	=21	=21	=21	=21	=21	=21	=21	=21	=21	=21	=21
!	!LO:TX:t=P:problem=mixed beam	!	!	!	!	!	!	!	!	!	!	!	!	!	!	!	!	!	!
8C\L	2e/ 2g	Chry-	.	2f#/	.	2a/	.	2d\	Chry-	2f#/	Chry-	2a\	Chry-	2.d/	2.a\	2.ff#\	.	2.aa\	.
8c\J	.	.	.	.	.	.	.	.	.	.	.	.	.	.	.	.	.	.	.
!	!LO:TX:t=P:problem=mixed beam	!	!	!	!	!	!	!	!	!	!	!	!	!	!	!	!	!	!
8C\L	.	.	.	.	.	.	.	.	.	.	.	.	.	.	.	.	.	.	.
8c\J	.	.	.	.	.	.	.	.	.	.	.	.	.	.	.	.	.	.	.
!	!LO:TX:t=P:problem=mixed beam	!	!	!	!	!	!	!	!	!	!	!	!	!	!	!	!	!	!
8C\L	8f/L 8a	.	.	8g/L	.	(8b/L	.	4d\	-ste	(8g/L	-ste	(8b\L	-ste	.	.	.	.	.	.
8c\J	8g/J 8b-	-ste	.	8a/J	.	8cc/J)	.	.	.	8a/J)	.	8cc\J)	.	.	.	.	.	.	.
!	!	!	!	!	!	!	!	!	!	!	!	!	!	!	!LO:LB:g=original	!	!	!	!
=22	=22	=22	=22	=22	=22	=22	=22	=22	=22	=22	=22	=22	=22	=22	=22	=22	=22	=22	=22
4F\	2f/ 2a	e-	.	2g/	.	2b`\	.	2G\	e-	2g\	.	2b\	.	2.g\	2.b\	2.gg\	.	2bb\	.
4F\	.	.	.	.	.	.	.	.	.	.	.	.	.	.	.	.	.	.	.
4F\	8a/L 8ff	.	.	8b/L	.	(8gg\L	.	4G\	.	(8b\L	.	(8gg\L	.	.	.	.	.	4eee\	.
.	8f/J 8dd	.	.	8g/J	.	8ee\J)	.	.	.	8g\J)	.	8ee\J)	.	.	.	.	.	.	.
!	!	!	!	!	!	!	!	!	!	!LO:LB:g=original	!	!	!	!	!	!	!	!	!
=23	=23	=23	=23	=23	=23	=23	=23	=23	=23	=23	=23	=23	=23	=23	=23	=23	=23	=23	=23
4G\	2e/ 2cc	-lei-	.	2f#/	.	2dd\	.	2A\	.	2f#/	le-	2dd\	lei-	2.a\	2.a\	2ff#\	.	2ddd\	.
4G\	.	.	.	.	.	.	.	.	.	.	.	.	.	.	.	.	.	.	.
4G\	8d/L 8bn	.	.	8f#/L	.	8cc#X\L	.	4A\	-lei-	(8e/L	.	(8cc#X\L	.	.	.	4gg\	.	4ccc#X\	.
.	8f/J 8dd	.	.	8g/J	.	8ee\J	.	.	.	8g/J)	.	8ee\J)	.	.	.	.	.	.	.
=24	=24	=24	=24	=24	=24	=24	=24	=24	=24	=24	=24	=24	=24	=24	=24	=24	=24	=24	=24
.	16qqf/ 16qqdd	.	.	.	.	.	.	.	.	8qqg/	.	.	.	.	.	.	.	8qqccc#X/	.
4c\	2.e/ 2.cc	-son	.	2g/	.	2ee\	.	4d\	.	2f#/	-son	2dd\	-son	2d/	2d/	2gg\	.	2ddd\	.
4G\	.	.	.	.	.	.	.	4A\	.	.	.	.	.	.	.	.	.	.	.
4C/	.	.	.	4f#/	.	4dd\	.	4F#\	-son	4r	.	4r	.	4r	4r	4ff#\	.	4r	.
!	!	!	!	!	!	!	!	!	!	!	!	!	!	!LO:LB:g=original	!	!	!	!	!
=25	=25	=25	=25	=25	=25	=25	=25	=25	=25	=25	=25	=25	=25	=25	=25	=25	=25	=25	=25
4F\	4a/	Ky-	.	4d/	.	4b`\	.	4G\	Ky-	4g/	Ky-	4cc`\	Ky-	4B/	4g\	4gg`\	.	4bb`\	.
4A\	8a/L	-rie	.	8d/L	.	(8b/L	.	4B\	.	(8g/L	.	(8b\L	.	4r	4r	(8gg\L	.	(8bb\L	.
.	8f/	.	.	8B/	.	8g/)	.	.	.	8e/J)	.	8g\J)	.	.	.	8b\)	.	8gg\)	.
4c\	8g/	.	.	8c/	.	(8a/	.	4d\	-ri-	(8f#/L	-ri-	(8a\L	-ri-	4d/	4a\	(8cc\	.	(8aa\	.
.	8e/J	.	.	8A/J	.	8f#/J)	.	.	.	8d/J)	.	8f#\J)	.	.	.	8a\J)	.	8ff#\J)	.
!LO:LB:g=original	!	!	!	!	!	!	!	!	!	!	!	!	!	!	!	!	!	!	!
=26	=26	=26	=26	=26	=26	=26	=26	=26	=26	=26	=26	=26	=26	=26	=26	=26	=26	=26	=26
4F\	8f/	e	.	4B/	.	4g`/	.	4G\	-e	4B/	-e	4g\	-e	4B/	4g\	4b\	.	4gg\	.
.	(8cc\L	.	.	.	.	.	.	.	.	.	.	.	.	.	.	.	.	.	.
4r	8ff\	.	.	4r	.	4r	.	4r	.	4r	.	4r	.	4r	4r	4r	.	4r	.
.	8aa\	.	.	.	.	.	.	.	.	.	.	.	.	.	.	.	.	.	.
4r	8ccc\	.	.	4r	.	4r	.	4r	.	4r	.	4r	.	4r	4r	4r	.	4r	.
.	8aa\J)	.	.	.	.	.	.	.	.	.	.	.	.	.	.	.	.	.	.
!	!	!	!	!	!	!	!	!LO:LB:g=original	!	!	!	!	!	!	!	!	!	!	!
=27	=27	=27	=27	=27	=27	=27	=27	=27	=27	=27	=27	=27	=27	=27	=27	=27	=27	=27	=27
4C\	4b-/	Ky-	.	4a/	.	4cc`\	.	4D\	Ky-	4a\	Ky-	4cc\	Ky-	4d/	4a\	4aa`\	.	4ccc`\	.
4E\	8b-/L	-rie	.	8a/L	.	(8cc\L	.	4F#\	.	(8a\L	.	(8cc\L	.	4r	4r	(8aa\L	.	(8ccc\L	.
.	8g/	.	.	8f#/	.	8a\)	.	.	.	8f#\J)	.	8a\J)	.	.	.	8ff#\J)	.	8aa\)	.
4F\	8a/	.	.	8g/	.	(8b\	.	4G\	-ri-	(8g\L	-ri-	(8b\L	-ri-	4g\	4b\	4gg\	.	(8bb\	.
.	8f/J	.	.	8e/J	.	8g\J)	.	.	.	8e\J)	.	8g\J)	.	.	.	.	.	8gg\J)	.
!	!	!	!	!	!	!	!	!	!	!	!	!	!	!	!	!	!	!LO:LB:g=original	!
=28	=28	=28	=28	=28	=28	=28	=28	=28	=28	=28	=28	=28	=28	=28	=28	=28	=28	=28	=28
4C/	8g/	e	.	4f#/	.	4a`/	.	4D\	-e	4d/	-e	4a\	-e	4d/	4a\	4ff#\	.	4aa\	.
.	8cc\L	.	.	.	.	.	.	.	.	.	.	.	.	.	.	.	.	.	.
4r	8ee\	.	.	4r	.	4r	.	4r	.	4r	.	4r	.	4r	4r	4r	.	4r	.
.	8gg\	.	.	.	.	.	.	.	.	.	.	.	.	.	.	.	.	.	.
4r	8bb-\	.	.	4r	.	4r	.	4r	.	4r	.	4r	.	4r	4r	4r	.	4r	.
.	8gg\J	.	.	.	.	.	.	.	.	.	.	.	.	.	.	.	.	.	.
=29	=29	=29	=29	=29	=29	=29	=29	=29	=29	=29	=29	=29	=29	=29	=29	=29	=29	=29	=29
4F\	4cc\	Ky-	.	4b/	.	4dd`\	.	4G\	Ky-	4b`\	Ky-	4dd`\	Ky-	4g\	4b\	4bb`\	.	4ddd`\	.
4A\	8cc\L	-rie	.	8b/L	.	(8dd\L	.	4B\	.	(8b\L	.	(8dd\L	.	4r	4r	(8bb\L	.	(8ddd\L	.
.	8a\	.	.	8g/	.	8b\)	.	.	.	8g\J)	.	8b\J)	.	.	.	8gg\)	.	8bb\)	.
4c\	8b-\	.	.	8a/	.	(8cc\	.	4d\	-ri-	(8a\L	-ri	8cc\L	-ri	4d/	4a\	8aa\	.	(8ccc\	.
.	8g\J	.	.	8f#/J	.	8a\J)	.	.	.	8f#\J)	.	8a\J	.	.	.	8ff#`\J	.	8aa\J)	.
!	!	!	!	!	!	!	!	!	!	!	!	!LO:LB:g=original	!	!	!	!	!	!	!
!	!	!	!	!	!	!	!	!	!	!	!	!	!	!	!	!LO:LB:g=original	!	!	!
=30	=30	=30	=30	=30	=30	=30	=30	=30	=30	=30	=30	=30	=30	=30	=30	=30	=30	=30	=30
4F\	8a\L	e-	.	8g\L	.	(8b\L	.	4G\	-e	8g`\L	e	(8b`\L	e-	4g\	4b\	4gg\	.	4bb`\	.
.	8a\ 8cc	.	.	8b\	.	8dd\)	.	.	.	8b`\J	.	8dd`\J)	.	.	.	.	.	.	.
4r	8dd\ 8ff	.	.	8ee\	.	(8gg\	.	4r	.	(8ee\L	.	(8gg\L	.	4r	4r	4bb\	.	4ddd`\	.
.	8cc\ 8ee	.	.	8dd\	.	8ff#\)	.	.	.	8dd\J)	.	8ff#\)	.	.	.	.	.	.	.
4r	8b-\ 8dd	.	.	8cc\	.	(8ee\	.	4r	.	(8cc\L	.	(8ee\	.	4r	4r	(8ccc\L	.	(8eee\L	.
.	8a\J 8cc	.	.	8b\J	.	8dd\J)	.	.	.	8b\J)	.	8dd\J)	.	.	.	8bb\J)	.	8ccc\J)	.
!	!	!	!	!	!	!	!	!	!	!LO:LB:g=original	!	!	!	!	!	!	!	!	!
=31	=31	=31	=31	=31	=31	=31	=31	=31	=31	=31	=31	=31	=31	=31	=31	=31	=31	=31	=31
!	!	!	!	!LO:TX:a:t=30	!	!LO:TX:a:t=30	!	!	!	!	!	!	!	!	!	!	!	!LO:TX:b:t=30	!
8F\L	8a/L 8cc	.	.	8b'/L	.	(8dd\L	.	(8G\L	e-	(8b\L	e-	(8dd\L	-lei-	4r	4r	(8bb\L	.	8ddd\L	.
8B-\J	8g/J 8b-	.	.	8a/J	.	8cc\J)	.	8c\J)	lei-	8a\J)	.	8cc\J)	.	.	.	8aa\J)	.	8ccc\J	.
!	!LO:TX:t=P:problem=mixed beam	!	!	!	!	!	!	!	!	!	!	!	!	!	!	!	!	!	!
8c\L	4f/ 4a	-lei-	.	4g/	.	4b'/	.	4d\	.	4g/	-lei-	4b\	.	4g\	4b\	4gg`\	.	4bb\	.
8C\J	.	.	.	.	.	.	.	.	.	.	.	.	.	.	.	.	.	.	.
!	!LO:TX:t=P:problem=mixed beam	!	!	!	!	!	!	!	!	!	!	!	!	!	!	!	!	!	!
8c\L	4B-/ 4g	.	.	8d/L	.	4a'/	.	4D/	.	4d/	.	4a\	.	4d/	4a\	4ff#`\	.	4aa\	.
8C\J	.	.	.	8c/J	.	.	.	.	.	.	.	.	.	.	.	.	.	.	.
!	!	!	!	!	!	!LO:LB:g=original	!	!	!	!	!	!	!	!	!	!	!	!	!
!	!	!	!	!	!	!	!	!	!	!	!	!	!	!	!LO:LB:g=original	!	!	!	!
=32	=32	=32	=32	=32	=32	=32	=32	=32	=32	=32	=32	=32	=32	=32	=32	=32	=32	=32	=32
.	.	.	.	.	.	.	.	8qqA/	.	8qqc/	.	8qqa/	.	.	.	.	.	.	.
4F\	4B-/ 4g	-son	.	2c/	.	2a/	.	2G\	-son	2B/	-son	2g\	-son	2d/	2a\	4gg`\	.	2.gg\	.
4C/	2A/ 2f	.	.	.	.	.	.	.	.	.	.	.	.	.	.	4r	.	.	.
4FF/	.	.	.	4B/	.	4g/	.	4r	.	4r	.	4r	.	4B/	4g\	4r	.	.	.
!LO:LB:g=original	!	!	!	!	!	!	!	!	!	!	!	!	!	!	!	!	!	!	!
=33	=33	=33	=33	=33	=33	=33	=33	=33	=33	=33	=33	=33	=33	=33	=33	=33||:	=33	=33||:	=33
!	!LO:TX:t=P:problem=mixed beam	!	!	!	!	!	!	!	!	!	!	!	!	!	!	!LO:TX:a:t=De	!	!	!
8C\L	4e/ 4g	Chry-	.	4ff#\	.	4aa`\	.	4D\	Chry-	4f#`\	Chry-	4a\	Chry-	4d/	4a\	2.dd\	.	2.ddd\	.
8c\J	.	.	.	.	.	.	.	.	.	.	.	.	.	.	.	.	.	.	.
!	!LO:TX:t=P:problem=mixed beam	!	!	!	!	!	!	!	!	!	!	!	!	!	!	!	!	!	!
8C\L	4f/ 4a	.	.	4gg\	.	4bb`\	.	4D\	.	(4g\	.	4b\	-ste	4g/	4b\	.	.	.	.
8c\J	.	.	.	.	.	.	.	.	.	.	.	.	.	.	.	.	.	.	.
!	!LO:TX:t=P:problem=mixed beam	!	!	!	!	!	!	!	!	!	!	!	!	!	!	!	!	!	!
8C\L	4g/ 4b-	-ste	.	4aa\	.	4ccc`\	.	4D\	-ste	4a\)	-ste	4cc\	e	4a\	4cc\	.	.	.	.
8c\J	.	.	.	.	.	.	.	.	.	.	.	.	.	.	.	.	.	.	.
!	!	!	!	!LO:LB:g=original	!	!	!	!	!	!	!	!	!	!	!	!	!	!	!
=34	=34	=34	=34	=34	=34	=34	=34	=34	=34	=34	=34	=34	=34	=34	=34	=34	=34	=34	=34
4F\	8f/L 8a	e-	.	4gg\	.	4bb`\	.	4GG/	e	(8g\L	e-	(8b\L	e-	4g\	4b\	4dd\	.	4ddd\	.
.	8a/ 8cc	.	.	.	.	.	.	.	.	8b\J)	.	8dd\J)	.	.	.	.	.	.	.
4r	8b-/ 8dd	.	.	4r	.	4r	.	4r	.	(8cc\L	-lei-	(8ee\L	-lei-	4r	4r	4r	.	4r	.
.	8a/ 8cc	-lei-	.	.	.	.	.	.	.	8b\)	.	8dd\J)	.	.	.	.	.	.	.
4r	8g/ 8b-	.	.	4r	.	4r	.	4r	.	(8a\	-son	(8cc\L	-son	4r	4r	4r	.	4r	.
.	8f/J 8a	-son	.	.	.	.	.	.	.	8g\J)	.	8b\J)	.	.	.	.	.	.	.
=35	=35	=35	=35	=35	=35	=35	=35	=35	=35	=35	=35	=35	=35	=35	=35	=35	=35	=35	=35
!	!LO:TX:t=P:problem=mixed beam	!	!	!	!	!	!	!	!	!	!	!	!	!	!	!	!	!	!
!	!	!	!	!	!LO:DY:t=po.	!	!	!	!	!	!	!	!	!	!	!	!	!	!
8C\L	4e/ 4g	Chry-	.	4ff#\	p	4aa\	.	4d\	Chry-	4f#`\	Chry-	4a\	Chry-	4d/	4a\	2.dd\	.	2.ddd\	.
8c\J	.	.	.	.	.	.	.	.	.	.	.	.	.	.	.	.	.	.	.
!	!LO:TX:t=P:problem=mixed beam	!	!	!	!	!	!	!	!	!	!	!	!	!	!	!	!	!	!
8C\L	4f/ 4a	.	.	4gg\	.	4bb\	.	4d\	.	(4g\	.	4b\	-ste	4g\	4b\	.	.	.	.
8c\J	.	.	.	.	.	.	.	.	.	.	.	.	.	.	.	.	.	.	.
!	!LO:TX:t=P:problem=mixed beam	!	!	!	!	!	!	!	!	!	!	!	!	!	!	!	!	!	!
8C\L	4g/ 4b-	-ste	.	4aa\	.	4ccc\	.	4d\	-ste	4a\)	-ste	4cc\	e	4a\	4cc\	.	.	.	.
8c\J	.	.	.	.	.	.	.	.	.	.	.	.	.	.	.	.	.	.	.
=36	=36	=36	=36	=36	=36	=36	=36	=36	=36	=36	=36	=36	=36	=36	=36	=36	=36	=36	=36
4F\	8f/L 8a	e-	.	4gg\	.	4bb\	.	4G\	e	8g`\L	e-	(8b\L	e-	4g\	4b\	4dd\	.	4ddd\	.
.	8a/ 8cc	.	.	.	.	.	.	.	.	8b`\J	.	8dd\J)	.	.	.	.	.	.	.
4r	8b-/ 8dd	.	.	4r	.	4r	.	4r	.	(8cc\L	-lei-	(8ee\L	-lei-	4r	4r	4r	.	4r	.
.	8a/ 8cc	-lei-	.	.	.	.	.	.	.	8b\J)	.	8dd\J)	.	.	.	.	.	.	.
4r	8g/ 8b-	.	.	4r	.	4r	.	4r	.	(8a\L	-son	(8cc\L	-son	4r	4r	4r	.	4r	.
.	8f/J 8a	-son	.	.	.	.	.	.	.	8g\J)	.	8b\J)	.	.	.	.	.	.	.
!	!	!	!	!	!	!	!	!LO:LB:g=original	!	!	!	!	!	!	!	!	!	!	!
!	!	!	!	!	!	!	!	!	!	!	!	!	!	!LO:LB:g=original	!	!	!	!	!
=37	=37	=37	=37	=37	=37	=37	=37	=37	=37	=37	=37	=37	=37	=37	=37	=37	=37	=37	=37
!	!	!	!	!	!	!LO:TX:b:t=1	!	!	!	!	!	!	!	!	!	!	!	!	!
!	!	!	!	!LO:TX:a:t=1.	!	!LO:TX:a:t=1	!	!	!	!	!	!	!	!LO:TX:a:t=4	!LO:TX:a:t=4	!LO:TX:a:t=1	!	!	!
4BB-\ 4B-	8b-\L 8dd	e-	.	2.r	.	2.r	.	4c\	e-	(8cc\L	e	(8ee\L	e	2.r	2.r	2.r	.	2.r	.
.	8cc\ 8ee	.	.	.	.	.	.	.	.	8dd\J)	.	8ff#\J)	.	.	.	.	.	.	.
4BB-\ 4B-	8dd\ 8ff	.	.	.	.	.	.	4c\	.	(8ee\L	.	(8gg\L	.	.	.	.	.	.	.
.	8cc\ 8ee	.	.	.	.	.	.	.	.	8dd\J)	.	8ff#\)	.	.	.	.	.	.	.
4BB-\ 4B-	8dd\ 8ff	.	.	.	.	.	.	4c\	.	(8ee\L	.	(8gg\	.	.	.	.	.	.	.
.	8b-\J 8dd	.	.	.	.	.	.	.	.	8cc\J)	.	8ee\J)	.	.	.	.	.	.	.
!	!	!	!	!	!	!	!	!	!	!LO:LB:g=original	!	!LO:LB:g=original	!	!	!	!	!	!	!
=38	=38	=38	=38	=38	=38	=38	=38	=38	=38	=38	=38	=38	=38	=38	=38	=38	=38	=38	=38
8r	4.a\ 4.cc	-lei-	.	4.bb\	.	4.ddd\	.	8r	.	4.b\	e-	4.dd\	e-	2.r	2.r	4.bb\	.	4.ddd\	.
8C\L	.	.	.	.	.	.	.	8D`\L	.	.	.	.	.	.	.	.	.	.	.
8D\	.	.	.	.	.	.	.	8E`\	.	.	.	.	.	.	.	.	.	.	.
8E\J	8g\ 8b-	.	.	8aa\	.	8ccc\	.	8F#`\J	.	8a\	.	8cc\	.	.	.	8aa\L	.	8ccc\	.
4F\	8f\L 8a	-son	.	8gg\L	.	(8bb\L	.	4G\	.	(8g\L	.	(8b\L	.	.	.	8gg\	.	8bb\	.
.	8a\J 8cc	.	.	8bb\J	.	8ddd\J)	.	.	.	8b\J)	.	8dd\J)	.	.	.	8bb\J	.	8ddd\	.
=39	=39	=39	=39	=39	=39	=39	=39	=39	=39	=39	=39	=39	=39	=39	=39	=39	=39	=39	=39
4B-\	8a\L 8cc	e-	.	8bb\L	.	(8ddd\L	.	4c\	-lei-	(8b\L	-lei-	(8dd\L	-lei-	2.r	2.r	8bb\L	.	4ccc\	.
.	8g\J 8b-	.	.	8aa\J	.	8ccc\J)	.	.	.	8a\J)	.	8cc\J)	.	.	.	8aa\J	.	.	.
4c\	4f/ 4a	-le-	.	4gg\	.	4bb`\	.	4d\	.	4g\	.	4b\	.	.	.	4gg\	.	4bb\	.
4C/	4e/ 4g	-i-	.	4ff#\	.	4aa`\	.	4D/	.	4f#\	.	4a\	.	.	.	4ff#\	.	4aa\	.
!LO:LB:g=original	!	!	!	!	!	!	!	!	!	!	!	!	!	!	!	!	!	!	!
=40	=40	=40	=40	=40	=40	=40	=40	=40	=40	=40	=40	=40	=40	=40	=40	=40	=40	=40	=40
!	!LO:TX:t=P:problem=mixed beam	!	!	!	!	!	!	!	!	!	!	!	!	!	!	!	!	!	!
!	!	!	!	!LO:TX:t=P:problem=mixed beam	!	!LO:TX:t=P:problem=mixed beam	!	!	!	!	!	!	!	!	!	!	!	!	!
!	!	!	!	!	!	!	!LO:DY:t=forto	!	!	!	!	!	!	!	!	!	!	!	!
!	!	!	!	!	!LO:DY:t=for.	!	!	!	!	!	!	!	!	!	!	!	!	!	!
8F`/L	4f/	-son	.	8gg\L	f	8gg\L	f	4G\	-son	4g\	-son	4g\	-son	2.r	2.r	4gg\	.	4bb\	.
8FF`/	.	.	.	16g\L	.	16g\L	.	.	.	.	.	.	.	.	.	.	.	.	.
.	.	.	.	16g\JJ	.	16g\JJ	.	.	.	.	.	.	.	.	.	.	.	.	.
8AA`/	4r	.	.	16b\LL	.	16b\LL	.	4r	.	4r	.	4r	.	.	.	4r	.	4r	.
.	.	.	.	16b\	.	16b\	.	.	.	.	.	.	.	.	.	.	.	.	.
8C`/J	.	.	.	16dd\	.	16dd\	.	.	.	.	.	.	.	.	.	.	.	.	.
.	.	.	.	16dd\JJ	.	16dd\JJ	.	.	.	.	.	.	.	.	.	.	.	.	.
!	!	!	!	!	!	!	!	!	!	!	!	!	!	!	!	!LO:TX:a:t=vi	!	!	!
4F\	4r	.	.	4gg\	.	4gg\	.	4r	.	4r	.	4r	.	.	.	4r	.	4r	.
!	!	!	!	!	!	!	!	!	!	!	!	!	!	!	!	!	!	!LO:LB:g=original	!
=41	=41	=41	=41	=41	=41	=41	=41	=41	=41	=41||:	=41	=41	=41	=41	=41	=41:||	=41	=41:||	=41
!	!	!	!	!	!	!	!	!	!	!LO:TX:t=P:problem=takty 41-48 w głosie S II zapisane ze znakiem repetycji	!	!	!	!	!	!LO:TX:t=P:problem=takty 41-48 zapisane repetycją	!	!	!
!	!LO:TX:t=P:problem=mixed beam	!	!	!	!	!	!	!	!	!	!	!	!	!	!	!LO:TX:a:t=De	!	!LO:TX:t=P:problem= takty 41-48 zapisane repetycją	!
!	!	!	!	!	!LO:DY:t=po.	!	!	!	!	!	!	!	!	!	!	!	!	!	!
8C\L	4e/ 4g	Chry-	.	4ff#\	p	4aa\	.	4D\	Chry-	4f#`\	Chry-	4a`\	Chry-	4d/	4a\	2.dd\yy	.	2.ddd\yy	.
8c\J	.	.	.	.	.	.	.	.	.	.	.	.	.	.	.	.	.	.	.
!	!LO:TX:t=P:problem=mixed beam	!	!	!	!	!	!	!	!	!	!	!	!	!	!	!	!	!	!
8C\L	4f/ 4a	.	.	4gg\	.	4bb\	.	4D\	.	(4g\	.	(4b\	-ste	4g/	4b\	.	.	.	.
8c\J	.	.	.	.	.	.	.	.	.	.	.	.	.	.	.	.	.	.	.
!	!LO:TX:t=P:problem=mixed beam	!	!	!	!	!	!	!	!	!	!	!	!	!	!	!	!	!	!
8C\L	4g/ 4b-	-ste	.	4aa\	.	4ccc\	.	4D\	-ste	4a\)	-ste	4cc\)	e	4a\	4cc\	.	.	.	.
8c\J	.	.	.	.	.	.	.	.	.	.	.	.	.	.	.	.	.	.	.
=42	=42	=42	=42	=42	=42	=42	=42	=42	=42	=42	=42	=42	=42	=42	=42	=42	=42	=42	=42
4F\	8f/L 8a	e-	.	4gg\	.	4bb\	.	4GG/	e	(8g\L	e-	(8b\L	e	4g\	4b\	4dd\yy	.	4ddd\yy	.
.	8a/ 8cc	.	.	.	.	.	.	.	.	8b\J)	.	8dd\J)	.	.	.	.	.	.	.
4r	8b-/ 8dd	.	.	4r	.	4r	.	4r	.	(8cc\L	-lei-	(8ee\L	.	4r	4r	4ryy	.	4ryy	.
.	8a/ 8cc	-lei-	.	.	.	.	.	.	.	8b\)	.	8dd\J)	.	.	.	.	.	.	.
4r	8g/ 8b-	.	.	4r	.	4r	.	4r	.	(8a\	-son	(8cc\L	.	4r	4r	4ryy	.	4ryy	.
.	8f/J 8a	-son	.	.	.	.	.	.	.	8g\J)	.	8b\J)	.	.	.	.	.	.	.
=43	=43	=43	=43	=43	=43	=43	=43	=43	=43	=43	=43	=43	=43	=43	=43	=43	=43	=43	=43
!	!LO:TX:t=P:problem=mixed beam	!	!	!	!	!	!	!	!	!	!	!	!	!	!	!	!	!	!
8C\L	4e/ 4g	Chry-	.	4ff#\	.	4aa\	.	4d\	Chry-	4f#`\	Chry-	4a\	Chry-	4d/	4a\	2.dd\yy	.	2.ddd\yy	.
8c\J	.	.	.	.	.	.	.	.	.	.	.	.	.	.	.	.	.	.	.
!	!LO:TX:t=P:problem=mixed beam	!	!	!	!	!	!	!	!	!	!	!	!	!	!	!	!	!	!
8C\L	4f/ 4a	.	.	4gg\	.	4bb\	.	4d\	.	(4g\	.	4b\	-ste	4g\	4b\	.	.	.	.
8c\J	.	.	.	.	.	.	.	.	.	.	.	.	.	.	.	.	.	.	.
!	!LO:TX:t=P:problem=mixed beam	!	!	!	!	!	!	!	!	!	!	!	!	!	!	!	!	!	!
8C\L	4g/ 4b-	-ste	.	4aa\	.	4ccc\	.	4d\	-ste	4a\)	-ste	4cc\	e-	4a\	4cc\	.	.	.	.
8c\J	.	.	.	.	.	.	.	.	.	.	.	.	.	.	.	.	.	.	.
!	!	!	!	!	!	!LO:LB:g=original	!	!	!	!	!	!	!	!	!	!	!	!	!
=44	=44	=44	=44	=44	=44	=44	=44	=44	=44	=44	=44	=44	=44	=44	=44	=44	=44	=44	=44
4F\	8f/L 8a	e-	.	4gg\	.	4bb\	.	4G\	e	8g`\L	e-	(8b\L	-e-	4g\	4b\	4dd\yy	.	4ddd\yy	.
.	8a/ 8cc	.	.	.	.	.	.	.	.	8b`\J	.	8dd\J)	.	.	.	.	.	.	.
4r	8b-/ 8dd	.	.	4r	.	4r	.	4r	.	(8cc\L	-lei-	(8ee\L	.	4r	4r	4ryy	.	4ryy	.
.	8a/ 8cc	-lei-	.	.	.	.	.	.	.	8b\J)	.	8dd\J)	.	.	.	.	.	.	.
4r	8g/ 8b-	.	.	4r	.	4r	.	4r	.	(8a\L	-son	(8cc\L	.	4r	4r	4ryy	.	4ryy	.
.	8f/J 8a	-son	.	.	.	.	.	.	.	8g\J)	.	8b\J)	.	.	.	.	.	.	.
!	!	!	!	!	!	!	!	!LO:LB:g=original	!	!	!	!	!	!	!	!	!	!	!
=45	=45	=45	=45	=45	=45	=45	=45	=45	=45	=45	=45	=45	=45	=45	=45	=45	=45	=45	=45
!	!	!	!	!LO:TX:a:t=1.	!	!LO:TX:a:t=1.	!	!	!	!	!	!	!	!LO:TX:a:t=4	!LO:TX:a:t=4	!LO:TX:a:t=1	!	!	!
4BB-\ 4B-	8b-\L 8dd	e-	.	2.r	.	2.r	.	4c\	e	(8cc\L	e	(8ee\L	-e-	2.r	2.r	2.ryy	.	2.ryy	.
.	8cc\ 8ee	.	.	.	.	.	.	.	.	8dd\J)	.	8ff#\J)	.	.	.	.	.	.	.
4BB-\ 4B-	8dd\ 8ff	.	.	.	.	.	.	4c\	.	(8ee\L	.	(8gg\L	.	.	.	.	.	.	.
.	8cc\ 8ee	.	.	.	.	.	.	.	.	8dd\J)	.	8ff#\J)	.	.	.	.	.	.	.
4BB-\ 4B-	8dd\ 8ff	.	.	.	.	.	.	4c\	.	(8ee\L	.	(8gg\L	.	.	.	.	.	.	.
.	8b-\J 8dd	.	.	.	.	.	.	.	.	8cc\J)	.	8ee\J)	.	.	.	.	.	.	.
!	!	!	!	!	!	!	!	!	!	!	!	!LO:LB:g=original	!	!	!	!	!	!	!
=46	=46	=46	=46	=46	=46	=46	=46	=46	=46	=46	=46	=46	=46	=46	=46	=46	=46	=46	=46
8r	4.a\ 4.cc	-lei-	.	4.bb\	.	4.ddd\	.	8r	.	4.b\	e-	(4.dd\	-e-	2.r	2.r	4.bb\yy	.	4.ddd\yy	.
8C\L	.	.	.	.	.	.	.	8D`\L	e-	.	.	.	.	.	.	.	.	.	.
8D\	.	.	.	.	.	.	.	8E`\	.	.	.	.	.	.	.	.	.	.	.
8E\J	8g\ 8b-	.	.	8aa\	.	8ccc\	.	8F#`\J	.	8a\	.	8cc\)	.	.	.	8aa\Lyy	.	8ccc\yy	.
4F\	8f\L 8a	-son	.	8gg\L	.	(8bb\L	.	4G\	.	(8g\L	.	(8b\L	.	.	.	8gg\yy	.	8bb\yy	.
.	8a\J 8cc	.	.	8bb\J	.	8ddd\J)	.	.	.	8b\J)	.	8dd\J)	.	.	.	8bb\Jyy	.	8ddd\yy	.
=47	=47	=47	=47	=47	=47	=47	=47	=47	=47	=47	=47	=47	=47	=47	=47	=47	=47	=47	=47
4B-\	8a/L 8cc	e-	.	8bb\L	.	(8ddd\L	.	4c\	-lei-	(8b\L	-lei-	(8dd\L	lei-	2.r	2.r	8bb\Lyy	.	4ddd\yy	.
.	8g/J 8b-	.	.	8aa\J	.	8ccc\J)	.	.	.	8a\J)	.	8cc\J)	.	.	.	8aa\Jyy	.	.	.
4c\	4f/ 4a	-le-	.	4gg\	.	4bb`\	.	4d\	.	4g\	.	4b\	.	.	.	4gg\yy	.	4bb\yy	.
4C/	4e/ 4g	-i-	.	4ff#\	.	4aa`\	.	4D/	.	4f#\	.	4a\	.	.	.	4ff#\yy	.	4aa\yy	.
!	!	!	!	!LO:LB:g=original	!	!	!	!	!	!	!	!	!	!	!	!	!	!	!
=48	=48	=48	=48	=48	=48	=48	=48	=48	=48	=48	=48	=48	=48	=48	=48	=48	=48	=48	=48
!	!LO:TX:t=P:problem=mixed beam	!	!	!	!	!	!	!	!	!	!	!	!	!	!	!	!	!	!
!	!	!	!	!LO:TX:t=P:problem=mixed beam	!	!LO:TX:t=P:problem=mixed beam	!	!	!	!	!	!	!	!	!	!	!	!	!
!	!	!	!	!	!LO:DY:t=forto.	!	!	!	!	!	!	!	!	!	!	!	!	!	!
8F`/L	4f/	-son	.	8gg/L	f	8gg/L	f	4G\	-son	4g\	-son	4g\	-son	2.r	2.r	4gg\yy	.	4bb\yy	.
8FF`/	.	.	.	16G/L	.	16g/L	.	.	.	.	.	.	.	.	.	.	.	.	.
.	.	.	.	16G/JJ	.	16g/JJ	.	.	.	.	.	.	.	.	.	.	.	.	.
8AA`/	4r	.	.	16B/LL	.	16b\LL	.	4r	.	4r	.	4r	.	.	.	4ryy	.	4ryy	.
.	.	.	.	16B/	.	16b\	.	.	.	.	.	.	.	.	.	.	.	.	.
8C`/J	.	.	.	16d/	.	16dd\	.	.	.	.	.	.	.	.	.	.	.	.	.
.	.	.	.	16d/JJ	.	16dd\JJ	.	.	.	.	.	.	.	.	.	.	.	.	.
!	!	!	!	!	!	!	!	!	!	!	!	!	!	!	!	!LO:TX:a:t=vi	!	!	!
4F\	4r	.	.	4g/	.	4gg\	.	4r	.	4r	.	4r	.	.	.	4ryy	.	4ryy	.
!	!	!	!	!	!	!	!	!	!	!	!	!	!	!	!LO:LB:g=original	!	!	!	!
!LO:LB:g=original	!	!	!	!	!	!	!	!	!	!	!	!	!	!	!	!	!	!	!
*сlefG2	*	*	*	*	*	*	*	*	*	*	*	*	*	*	*	*	*	*	*
=49	=49	=49	=49	=49	=49	=49	=49	=49	=49	=49	=49	=49:||	=49	=49	=49	=49	=49	=49	=49
!	!LO:TX:a:i:t=Solo	!	!	!	!	!	!LO:DY:a	!	!	!	!	!	!	!	!	!	!	!	!
!	!	!	!	!	!	!	!LO:DY:t=Piano	!	!	!	!	!	!	!	!	!	!	!	!
!	!	!	!	!	!LO:DY:t=po.	!	!	!	!	!	!	!	!	!	!	!	!	!	!
2g/ 2b-	16cc\LL	.	.	2.f#/	p	2.a/	p	4r	.	4r	.	4r	.	4d/	4a\	2.ff#\	.	4r	.
.	16ee\	.	.	.	.	.	.	.	.	.	.	.	.	.	.	.	.	.	.
.	16gg\	.	.	.	.	.	.	.	.	.	.	.	.	.	.	.	.	.	.
.	16ee\JJ	.	.	.	.	.	.	.	.	.	.	.	.	.	.	.	.	.	.
*	*tremolo	*	*	*	*	*	*	*	*	*	*	*	*	*	*	*	*	*	*
.	8cc\L	.	.	.	.	.	.	8A\	Ky-	8r	.	8dd\	Ky-	4r	4r	.	.	8ddd\L	.
.	8cc\	.	.	.	.	.	.	8A\	-ri-	8a\	Ky-	8dd\	-ri-	.	.	.	.	8ddd\J	.
4g/ 4b-	8cc\	.	.	.	.	.	.	4A\	-e	8a\	-ri-	4dd\	-e	4d/	4a\	.	.	4ddd\	.
.	8cc\J	.	.	.	.	.	.	.	.	8a\	-e	.	.	.	.	.	.	.	.
=50	=50	=50	=50	=50	=50	=50	=50	=50	=50	=50	=50	=50	=50	=50	=50	=50	=50	=50	=50
2f/ 2a	16cc\LL	.	.	2.g/	.	2.b/	.	4r	.	4r	.	4r	.	4g\	4b\	2.gg\	.	4r	.
.	16ff\	.	.	.	.	.	.	.	.	.	.	.	.	.	.	.	.	.	.
.	16aa\	.	.	.	.	.	.	.	.	.	.	.	.	.	.	.	.	.	.
.	16ff\JJ	.	.	.	.	.	.	.	.	.	.	.	.	.	.	.	.	.	.
.	8cc\L	.	.	.	.	.	.	8G\	Ky-	8r	.	8dd\	Ky-	4r	4r	.	.	8ddd\L	.
.	8cc\	.	.	.	.	.	.	8G\	-ri-	8b\	Ky-	8dd\	-ri-	.	.	.	.	8ddd\J	.
4f/ 4a	8cc\	.	.	.	.	.	.	4G\	-e	8b\	-ri-	4dd\	-e	4g\	4b\	.	.	4ddd\	.
.	8cc\J	.	.	.	.	.	.	.	.	8b\	-e	.	.	.	.	.	.	.	.
!	!	!	!	!	!	!	!	!	!	!	!	!	!	!	!	!LO:LB:g=original	!	!	!
=51	=51	=51	=51	=51	=51	=51	=51	=51	=51	=51	=51	=51	=51	=51	=51	=51	=51	=51	=51
2e/ 2g	16cc\LL	.	.	2.a/	.	2.cc/	.	4r	.	4r	.	4r	.	4a\	4cc\	2.aa\	.	4r	.
.	16gg\	.	.	.	.	.	.	.	.	.	.	.	.	.	.	.	.	.	.
.	16bb-\	.	.	.	.	.	.	.	.	.	.	.	.	.	.	.	.	.	.
.	16gg\JJ	.	.	.	.	.	.	.	.	.	.	.	.	.	.	.	.	.	.
.	8cc\L	.	.	.	.	.	.	8F#\	Ky-	8r	.	8dd\	Ky-	4r	4r	.	.	8ddd\L	.
.	8bb-\J	.	.	.	.	.	.	8F#\	-ri-	8a\	Ky-	8dd\	-ri-	.	.	.	.	8ddd\J	.
4e/ 4g	8cc\L	.	.	.	.	.	.	4F#\	-e	8a\	-ri-	4dd\	-e	4a\	4cc\	.	.	4ddd\	.
.	8bb-\J	.	.	.	.	.	.	.	.	8a\	-e	.	.	.	.	.	.	.	.
!	!	!	!	!	!	!	!	!LO:LB:g=original	!	!	!	!	!	!	!	!	!	!	!
=52	=52	=52	=52	=52	=52	=52	=52	=52	=52	=52	=52	=52	=52	=52	=52	=52	=52	=52	=52
!	!	!	!	!	!	!	!	!	!	!	!	!	!	!	!	!	!	!LO:TX:a:t=1	!
2f/ 2a	8bb-\L	.	.	2.g/	.	2.b/	.	4G\	e-	4g\	e-	(8cc\L	e-	4g\	4b\	2.gg\	.	2.r	.
.	8aa\	.	.	.	.	.	.	.	.	.	.	8b\J)	.	.	.	.	.	.	.
.	8gg\	.	.	.	.	.	.	4G\	.	4g\	-lei-	(8a\L	-lei-	4r	4r	.	.	.	.
.	8ff\	.	.	.	.	.	.	.	.	.	.	8g\J)	.	.	.	.	.	.	.
4f/ 4a	8ee\	.	.	.	.	.	.	4G\	-lei-	4g\	-son	8f#\	.	4r	4r	.	.	.	.
.	8ff\J	.	.	.	.	.	.	.	.	.	.	8g\	-son	.	.	.	.	.	.
!	!	!	!	!	!	!	!	!	!	!	!	!LO:LB:g=original	!	!	!	!	!	!	!
!	!	!	!	!	!	!	!	!	!	!LO:LB:g=original	!	!	!	!	!	!	!	!	!
=53	=53	=53	=53	=53	=53	=53	=53	=53	=53	=53	=53	=53	=53	=53	=53	=53	=53	=53	=53
2g/ 2b-	16cc\LL	.	.	2.f#/	.	2.a/	.	4A\	-son	4r	.	4r	.	4d/	4a\	2.ff#\	.	4r	.
.	16ee\	.	.	.	.	.	.	.	.	.	.	.	.	.	.	.	.	.	.
.	16gg\	.	.	.	.	.	.	.	.	.	.	.	.	.	.	.	.	.	.
.	16ee\JJ	.	.	.	.	.	.	.	.	.	.	.	.	.	.	.	.	.	.
.	8cc\L	.	.	.	.	.	.	4r	.	8r	.	8dd\	Ky-	4r	4r	.	.	8ddd\L	.
.	8cc\	.	.	.	.	.	.	.	.	8a\	Ky-	8dd\	-ri-	.	.	.	.	8ddd\J	.
4g/ 4b-	8cc\	.	.	.	.	.	.	4r	.	8a\	-ri-	4dd\	-e	4d/	4a\	.	.	4ddd\	.
.	8cc\J	.	.	.	.	.	.	.	.	8a\	-e	.	.	.	.	.	.	.	.
=54	=54	=54	=54	=54	=54	=54	=54	=54	=54	=54	=54	=54	=54	=54	=54	=54	=54	=54	=54
2f/ 2a	16cc\LL	.	.	2.g/	.	2.b\	.	4r	.	4r	.	4r	.	4g\	4b\	2.gg\	.	4r	.
.	16ff\	.	.	.	.	.	.	.	.	.	.	.	.	.	.	.	.	.	.
.	16aa\	.	.	.	.	.	.	.	.	.	.	.	.	.	.	.	.	.	.
.	16ff\JJ	.	.	.	.	.	.	.	.	.	.	.	.	.	.	.	.	.	.
.	8cc\L	.	.	.	.	.	.	8G\	Ky-	8r	.	8dd\	Ky-	4r	4r	.	.	8ddd\L	.
.	8cc\	.	.	.	.	.	.	8G\	-ri-	8b\	Ky-	8dd\	-ri-	.	.	.	.	8ddd\J	.
4f/ 4a	8cc\	.	.	.	.	.	.	4G\	-e	8b\	-ri-	4dd\	-e	4b\	4b\	.	.	4ddd\	.
.	8cc\J	.	.	.	.	.	.	.	.	8b\	-e	.	.	.	.	.	.	.	.
!	!	!	!	!	!	!	!	!	!	!	!	!	!	!LO:LB:g=original	!	!	!	!	!
*	*Xtremolo	*	*	*	*	*	*	*	*	*	*	*	*	*	*	*	*	*	*
=55	=55	=55	=55	=55	=55	=55	=55	=55	=55	=55	=55	=55	=55	=55	=55	=55	=55	=55	=55
2e/ 2g	16cc\LL	.	.	2.a/	.	2.cc/	.	4r	.	4r	.	4r	.	4cc\	4cc\	2.aa\	.	4r	.
.	16gg\	.	.	.	.	.	.	.	.	.	.	.	.	.	.	.	.	.	.
.	16bb-\	.	.	.	.	.	.	.	.	.	.	.	.	.	.	.	.	.	.
.	16gg\JJ	.	.	.	.	.	.	.	.	.	.	.	.	.	.	.	.	.	.
!LO:LB:g=original	!	!	!	!	!	!	!	!	!	!	!	!	!	!	!	!	!	!	!
.	8cc\L	.	.	.	.	.	.	8F#\	Ky-	8r	.	8dd\	Ky-	4r	4r	.	.	8ddd\L	.
.	8bb-\J	.	.	.	.	.	.	8F#\	-ri-	8a\	Ky-	8dd\	-rie	.	.	.	.	8ddd\J	.
4e/ 4g	8cc\L	.	.	.	.	.	.	4F#\	-e	8a\	-ri-	(8dd\L	lei-	4cc\	4cc\	.	.	4ddd\	.
.	8bb-\J	.	.	.	.	.	.	.	.	8a\	-e	8cc\J)	.	.	.	.	.	.	.
=56	=56	=56	=56	=56	=56	=56	=56	=56	=56	=56	=56	=56	=56	=56	=56	=56	=56	=56	=56
8f/L	8aa\L	.	.	4g/	.	8b\	.	4G\	e	4g\	e	4b\	-son	4b\	4b\	4gg\	.	2.ddd\	.
8cc/	8ccc\	.	.	.	.	4dd\	.	.	.	.	.	.	.	.	.	.	.	.	.
8g/	8ee\	.	.	4a/	.	.	.	4r	.	4r	.	4r	.	4r	4r	4aa\	.	.	.
8cc/	8gg\	.	.	.	.	4dd\	.	.	.	.	.	.	.	.	.	.	.	.	.
8a/	8ff\	.	.	4b/	.	.	.	4r	.	4r	.	4r	.	4r	4r	4bb\	.	.	.
8cc/J	8aa\J	.	.	.	.	8dd\	.	.	.	.	.	.	.	.	.	.	.	.	.
=57	=57	=57	=57	=57	=57	=57	=57	=57	=57	=57	=57	=57	=57	=57	=57	=57	=57	=57	=57
8en/L	4gg\	.	.	4f#/	.	8dd\	.	8D\	Ky-	4f#X\	Ky-	4a\	Ky-	4D/	2.a\	4ff#\	.	8aa\L	.
8cc/	.	.	.	.	.	4dd\	.	8D\	-ri-	.	.	.	.	.	.	.	.	8ddd\	.
8f/	4aa\	.	.	4g/	.	.	.	4D\	-e	4g\	-ri-	4b\	-ri-	4d/	.	4gg\	.	8bb\	.
8cc/	.	.	.	.	.	4dd\	.	.	.	.	.	.	.	.	.	.	.	8ddd\	.
8g/	4bb-\	.	.	4a/	.	.	.	4D\	lei-	4a\	-e	4cc\	-e	4d/	.	4aa\	.	8ccc\	.
8cc/J	.	.	.	.	.	[8dd\	.	.	.	.	.	.	.	.	.	.	.	8ddd\J	.
!	!	!	!	!	!	!LO:LB:g=original	!	!	!	!	!	!	!	!	!	!	!	!	!
=58	=58	=58	=58	=58	=58	=58	=58	=58	=58	=58	=58	=58	=58	=58	=58	=58	=58	=58	=58
8f/L	8.aa\L	.	.	4g/	.	8dd\]	.	4GG/	-son	4g\	e	4b\	e	4G/	4b\	4gg\	.	4ccc\	.
8cc/	.	.	.	.	.	4dd\	.	.	.	.	.	.	.	.	.	.	.	.	.
.	16ccc\K	.	.	.	.	.	.	.	.	.	.	.	.	.	.	.	.	.	.
8g/	8.ee\	.	.	4a/	.	.	.	4r	.	4r	.	4r	.	4r	4r	4aa\	.	2bb\	.
8cc/	.	.	.	.	.	4dd\	.	.	.	.	.	.	.	.	.	.	.	.	.
.	16gg\K	.	.	.	.	.	.	.	.	.	.	.	.	.	.	.	.	.	.
8a/	8.ff\	.	.	4b/	.	.	.	4r	.	4r	.	4r	.	4r	4r	4bb\	.	.	.
8cc/J	.	.	.	.	.	[8dd\	.	.	.	.	.	.	.	.	.	.	.	.	.
.	16aa\Jk	.	.	.	.	.	.	.	.	.	.	.	.	.	.	.	.	.	.
!	!	!	!	!	!	!	!	!LO:LB:g=original	!	!	!	!	!	!	!	!	!	!	!
=59	=59	=59	=59	=59	=59	=59	=59	=59	=59	=59	=59	=59	=59	=59	=59	=59	=59	=59	=59
!	!	!	!	!	!	!	!	!	!	!	!	!	!	!LO:TX:a:t=g	!	!	!	!	!
8en/L	4gg\	.	.	4f#/	.	8dd\]	.	4d\	Ky-	4f#X\	Ky-	4a\	Ky-	4D/	2.a\	4ff#\	.	(8aa\L	.
8cc/	.	.	.	.	.	4dd\	.	.	.	.	.	.	.	.	.	.	.	8ddd\)	.
8f/	4aa\	.	.	4g/	.	.	.	4d\	.	4g\	-ri-	4b\	-ri-	4d/	.	4gg\	.	(8bb\	.
8cc/	.	.	.	.	.	4dd\	.	.	.	.	.	.	.	.	.	.	.	8ddd\)	.
8g/	4bb-\	.	.	4a/	.	.	.	4d\	-ri-	4a\	-e	4cc\	-e	4d/	.	4aa\	.	(8ccc\	.
8cc/J	.	.	.	.	.	8dd\	.	.	.	.	.	.	.	.	.	.	.	8ddd\J)	.
!	!	!	!	!	!	!	!	!	!	!LO:LB:g=original	!	!	!	!	!	!	!	!	!
!	!	!	!	!	!	!	!	!	!	!	!	!	!	!	!	!	!	!LO:LB:g=original	!
!	!	!	!	!	!	!	!	!	!	!	!	!	!	!	!LO:LB:g=original	!	!	!	!
=60	=60	=60	=60	=60	=60	=60	=60	=60	=60	=60	=60	=60	=60	=60	=60	=60	=60	=60	=60
!	!	!	!	!	!	!LO:N:vis=4	!	!	!	!	!	!	!	!	!	!	!	!	!
4e/ 4cc	16aa\LL	.	.	4g/	.	8dd\	.	4G\	-e	4g\	e	4b\	e	4g\	4b\	4gg\	.	4ddd\	.
.	16gg\	.	.	.	.	.	.	.	.	.	.	.	.	.	.	.	.	.	.
.	16aa\	.	.	.	.	8ryy	.	.	.	.	.	.	.	.	.	.	.	.	.
.	16bb-\JJ	.	.	.	.	.	.	.	.	.	.	.	.	.	.	.	.	.	.
4r	16ccc\LL	.	.	4r	.	4r	.	4r	.	4r	.	4r	.	4r	4r	4r	.	4r	.
.	16bb-\	.	.	.	.	.	.	.	.	.	.	.	.	.	.	.	.	.	.
.	16aa\	.	.	.	.	.	.	.	.	.	.	.	.	.	.	.	.	.	.
.	16gg\JJ	.	.	.	.	.	.	.	.	.	.	.	.	.	.	.	.	.	.
!	!	!	!	!LO:TX:a:t=30	!	!LO:TX:a:t=30	!	!	!	!	!	!	!	!	!	!	!	!	!
*сlefF4	*	*	*	*	*	*	*	*	*	*	*	*	*	*	*	*	*	*	*
4A\ 4f	16ff\LL	.	.	4r	.	4r	.	4r	.	4r	.	4r	.	4r	4r	4bb\	.	4ddd\	.
.	16ee\	.	.	.	.	.	.	.	.	.	.	.	.	.	.	.	.	.	.
.	16dd\	.	.	.	.	.	.	.	.	.	.	.	.	.	.	.	.	.	.
.	16cc\JJ	.	.	.	.	.	.	.	.	.	.	.	.	.	.	.	.	.	.
=61	=61	=61	=61	=61	=61	=61	=61	=61	=61	=61	=61	=61	=61	=61	=61	=61	=61	=61	=61
!	!	!	!	!	!	!	!	!	!	!	!	!	!	!	!	!	!	!LO:TX:b:t=30	!
.	.	.	.	.	.	.	.	.	.	.	.	.	.	.	.	.	.	8qqddd#X/	.
8B-\L	(16cc#X\LL	.	.	4r	.	4r	.	4r	.	4r	.	4r	.	4r	4r	4ccc\	.	4eee\	.
.	16dd\	.	.	.	.	.	.	.	.	.	.	.	.	.	.	.	.	.	.
8f\	16ee\	.	.	.	.	.	.	.	.	.	.	.	.	.	.	.	.	.	.
.	16ff\JJ)	.	.	.	.	.	.	.	.	.	.	.	.	.	.	.	.	.	.
8A\	4.ccn\	.	.	8r	.	8r	.	8r	.	8r	.	8r	.	8r	8r	8ccc\	.	8ccc\	.
8f\	.	.	.	8b\	.	(8dd\L	.	8B\	Ky-	8g\	Ky-	8dd\	Ky-	16G/LL	16.b`\LL	8r	.	8r	.
.	.	.	.	.	.	.	.	.	.	.	.	.	.	16G/JJ	.	.	.	.	.
.	.	.	.	.	.	.	.	.	.	.	.	.	.	.	32b`\JJk	.	.	.	.
8A\	.	.	.	4b\	.	8gg\)	.	8B\	-ri-	8b\	-ri-	8dd\	-ri-	8G/L	8b`\L	4r	.	4r	.
8f\J	8cc\	.	.	.	.	8dd`\J	.	8B\	-e	8g\	-e	8dd\	-e	8G/J	8b`\J	.	.	.	.
!LO:LB:g=original	!	!	!	!	!	!	!	!	!	!	!	!	!	!	!	!	!	!	!
=62	=62	=62	=62	=62	=62	=62	=62	=62	=62	=62	=62	=62	=62	=62	=62	=62	=62	=62	=62
8B-\L	(16cc#X\LL	.	.	4r	.	4r	.	4r	.	4r	.	4r	.	4G/	4b\	4ccc\	.	4eee\	.
.	16dd\	.	.	.	.	.	.	.	.	.	.	.	.	.	.	.	.	.	.
8f\	16ee\	.	.	.	.	.	.	.	.	.	.	.	.	.	.	.	.	.	.
.	16ff\JJ)	.	.	.	.	.	.	.	.	.	.	.	.	.	.	.	.	.	.
8A\	4.cc#\	.	.	8r	.	8r	.	8r	.	8r	.	8r	.	8r	8r	8bb\	.	8ddd\	.
!	!	!	!	!	!	!	!	!	!	!	!	!LO:LB:g=original	!	!	!	!	!	!	!
8f\	.	.	.	8b\	.	(8dd\L	.	8B\	Ky-	8g\	Ky-	8dd\	Ky-	16G/LL	16.g\LL	8r	.	8r	.
.	.	.	.	.	.	.	.	.	.	.	.	.	.	16G/JJ	.	.	.	.	.
.	.	.	.	.	.	.	.	.	.	.	.	.	.	.	32g\JJk	.	.	.	.
8A\	.	.	.	4b\	.	8gg\)	.	8B\	-ri-	8b\	-ri-	8dd\	-ri-	8G/L	8g\L	4r	.	4r	.
8f\J	8cc#\	.	.	.	.	8dd`\J	.	8B\	-e	8g\	-e	8dd\	-e	8G/J	8g\J	.	.	.	.
!	!	!	!	!LO:LB:g=original	!	!	!	!	!	!	!	!	!	!	!	!	!	!	!
!	!	!	!	!	!	!	!	!	!	!	!	!	!	!	!	!LO:LB:g=original	!	!	!
=63	=63	=63	=63	=63	=63	=63	=63	=63	=63	=63	=63	=63	=63	=63	=63	=63	=63	=63	=63
!	!	!	!	!	!LO:DY:t=forto	!	!	!	!	!	!	!	!	!	!	!	!	!	!
4B-\	8dd\L	.	.	8g\L	f	8ee`\L	.	4c\	e-	8r	.	8r	.	4r	4r	8r	.	(8aa\L	.
.	8dd\ 8bb-	.	.	8ee\	.	8ccc`\	.	.	.	8ee`\	e-	8cc\	e-	.	.	8ccc\L	.	8eee\)	.
4c\	8cc\ 8aa	.	.	8dd\	.	8bb`\	.	4d\	-le-	(8dd\L	.	(8b\L	-lei-	4g\	4b\	8bb\	.	(8ddd\	.
.	8b-\ 8gg	.	.	8cc\	.	8aa`\	.	.	.	8cc\J)	.	8a\J)	.	.	.	8aa\	.	8ccc\J)	.
4C/	8a\ 8ff	.	.	8b\	.	8gg`\	.	4D\	-i-	(8b\L	-lei	(8g\L	.	4d\	4a\	8gg\	.	8bb\L	.
.	8g\J 8ee	.	.	8a\J	.	8ff#`\J	.	.	.	8a\J)	.	8f#\J)	.	.	.	8ff#\J	.	8aa\J	.
!	!	!	!	!	!	!	!	!	!	!	!	!	!	!LO:LB:g=original	!	!	!	!	!
=64	=64	=64	=64	=64	=64	=64	=64	=64	=64	=64	=64	=64	=64	=64	=64	=64	=64	=64	=64
4F\	8.ff\L	.	.	4b\	.	4gg\	.	4G\	-son	4g\	-son	4g\	-son	4B/	4g\	4gg\	.	4bb\	.
.	16aa\Jk	.	.	.	.	.	.	.	.	.	.	.	.	.	.	.	.	.	.
4r	16ccc\LL	.	.	4r	.	4r	.	4r	.	4r	.	4r	.	4r	4r	4r	.	4r	.
.	16bb-\	.	.	.	.	.	.	.	.	.	.	.	.	.	.	.	.	.	.
.	16aa\	.	.	.	.	.	.	.	.	.	.	.	.	.	.	.	.	.	.
.	16gg\JJ	.	.	.	.	.	.	.	.	.	.	.	.	.	.	.	.	.	.
4F\ 4A 4f	16ff\LL	.	.	4r	.	4r	.	4r	.	4r	.	4r	.	4r	4r	4bb\	.	4r	.
.	16ee\	.	.	.	.	.	.	.	.	.	.	.	.	.	.	.	.	.	.
.	16dd\	.	.	.	.	.	.	.	.	.	.	.	.	.	.	.	.	.	.
.	16cc\JJ	.	.	.	.	.	.	.	.	.	.	.	.	.	.	.	.	.	.
=65	=65	=65	=65	=65	=65	=65	=65	=65	=65	=65	=65	=65	=65	=65	=65	=65	=65	=65	=65
8B-\L	16cc#X\LL	.	.	4r	.	4r	.	4r	.	4r	.	4r	.	4r	4r	4ccc\	.	4eee\	.
.	16dd\	.	.	.	.	.	.	.	.	.	.	.	.	.	.	.	.	.	.
8f\	16ee\	.	.	.	.	.	.	.	.	.	.	.	.	.	.	.	.	.	.
.	16ff\JJ	.	.	.	.	.	.	.	.	.	.	.	.	.	.	.	.	.	.
8A\	4.ccn\	.	.	8r	.	8r	.	8r	.	8r	.	8r	.	8r	8r	8bb\	.	8ddd\	.
!	!	!	!	!	!LO:DY:t=po	!	!	!	!	!	!	!	!	!	!	!	!	!	!
8f\	.	.	.	8b/	p	(8dd\L	.	8B\	Ky-	8g\	Ky-	8dd\	Ky-	16G/LL	16.g\LL	8r	.	8r	.
.	.	.	.	.	.	.	.	.	.	.	.	.	.	16G/JJ	.	.	.	.	.
.	.	.	.	.	.	.	.	.	.	.	.	.	.	.	32g\JJk	.	.	.	.
8A\	.	.	.	4b/	.	8gg\)	.	8B\	-ri-	8b\	-ri-	8dd\	-ri-	8G/L	8g\L	4r	.	4r	.
8f\J	8cc\	.	.	.	.	8dd\J	.	8B\	-e	8g\	-e	8dd\	-e	8G/J	8g\J	.	.	.	.
!	!	!	!	!	!	!	!	!LO:LB:g=original	!	!LO:LB:g=original	!	!	!	!	!	!	!	!	!
!	!	!	!	!	!	!	!	!	!	!	!	!	!	!	!LO:LB:g=original	!	!	!	!
=66	=66	=66	=66	=66	=66	=66	=66	=66	=66	=66	=66	=66	=66	=66	=66	=66	=66	=66	=66
8B-\L	16cc#X\LL	.	.	4r	.	4r	.	4r	.	4r	.	4r	.	4G/	4g\	4ccc\	.	4eee\	.
.	16dd\	.	.	.	.	.	.	.	.	.	.	.	.	.	.	.	.	.	.
8f\	16ee\	.	.	.	.	.	.	.	.	.	.	.	.	.	.	.	.	.	.
.	16ff\JJ	.	.	.	.	.	.	.	.	.	.	.	.	.	.	.	.	.	.
8A\	4.ccn\	.	.	8r	.	8r	.	8r	.	8r	.	8r	.	8r	8r	8bb\	.	8ddd\	.
8f\	.	.	.	8b/	.	(8dd\L	.	8B\	Ky-	8g\	Ky-	8dd\	Ky-	16G/LL	16.g\LL	8r	.	8r	.
.	.	.	.	.	.	.	.	.	.	.	.	.	.	16G/JJ	.	.	.	.	.
.	.	.	.	.	.	.	.	.	.	.	.	.	.	.	32g\JJk	.	.	.	.
8A\	.	.	.	4b/	.	8gg\)	.	8B\	-ri-	8b\	-ri-	8dd\	-ri-	8G/L	4g\	4r	.	4r	.
8f\J	8ee-X\	.	.	.	.	8dd`\J	.	8B\	-e	8g\	-e	8ffn\	-e	8G/J	.	.	.	.	.
!	!	!	!	!	!	!	!	!	!	!	!	!LO:LB:g=original	!	!	!	!	!	!	!
!LO:LB:g=original	!	!	!	!	!	!	!	!	!	!	!	!	!	!	!	!	!	!	!
=67	=67	=67	=67	=67	=67	=67	=67	=67	=67	=67	=67	=67	=67	=67	=67	=67	=67	=67	=67
!	!	!	!	!	!LO:DY:t=forto.	!	!	!	!	!	!	!	!	!	!	!	!	!	!
4B-\	8dd\L	.	.	8g\L	f	8ee`\L	f	4c\	e-	8r	.	8r	.	4G/	4g\	8r	.	8r	.
.	8dd\ 8bb-	.	.	8ee\	.	8ccc`\	.	.	.	8ee\	e-	8cc\	e-	.	.	8ccc\L	.	8eee\L	.
4c\	8cc\ 8aa	.	.	8dd\	.	8bb`\	.	4d\	-le-	(8dd\L	.	(8b\L	-lei-	4g\	4b\	8bb\	.	8ddd\	.
.	8b-\ 8gg	.	.	8cc\	.	8aa`\	.	.	.	8cc\J)	.	8a\J)	.	.	.	8aa\	.	8ccc\	.
4C/	8a\ 8ff	.	.	8b\	.	8gg`\	.	4D/	-i-	(8b\L	-lei	(8g\L	.	4d/	4a\	8gg\	.	8bb\	.
.	8g\J 8ee	.	.	8a\J	.	8ff#`\J	.	.	.	8a\J)	.	8f#\J)	.	.	.	8ff#\J	.	8aa\J	.
!	!	!	!	!	!	!	!	!	!	!	!	!	!	!	!	!	!	!LO:LB:g=original	!
=68	=68	=68	=68	=68	=68	=68	=68	=68	=68	=68	=68	=68	=68	=68	=68	=68	=68	=68	=68
!	!	!	!LO:DY:a	!	!	!	!	!	!	!	!	!	!	!	!	!	!	!	!
!	!	!	!LO:DY:t=forte	!	!	!	!	!	!	!	!	!	!	!	!	!	!	!	!
4F\	4a\ 4ff	.	f	4b/	.	4gg`\	.	4G\	-son	4g`\	-son	4g\	-son	4B/	4g\	2gg\	.	2bb\	.
!	!	!	!	!	!	!	!	!	!	!LO:TX:t=P:problem=mixed beam	!	!LO:TX:t=P:problem=mixed beam	!	!	!	!	!	!	!
4r	8ccc\L	.	.	8b/L	.	(8dd\L	.	4r	.	(8cc\L	e-	(8dd\L	Ky-	4r	4r	.	.	.	.
.	8cc\	.	.	8g/	.	8b\)	.	.	.	8d\J)	.	8d\J)	.	.	.	.	.	.	.
!	!	!	!	!	!	!	!	!	!	!	!	!LO:TX:t=P:problem=mixed beam	!	!	!	!	!	!	!
4C\ 4c	8gg\ 8bb-	.	.	8a/	.	(8cc\	.	4D\	lei-	(8a\L	-lei-	(8cc\L	-rie	4r	4r	4aa\	.	4ccc\	.
.	8cc\J	.	.	8f#/J	.	8a\J)	.	.	.	8d\J)	.	8d\J)	.	.	.	.	.	.	.
!	!	!	!	!	!	!LO:LB:g=original	!	!	!	!	!	!	!	!	!	!	!	!	!
=69	=69	=69	=69	=69	=69	=69	=69	=69	=69	=69	=69	=69	=69	=69	=69	=69	=69	=69	=69
!	!	!	!	!	!	!	!	!	!	!	!	!	!	!LO:TX:a:t=3	!LO:TX:a:t=3	!	!	!	!
4F\ 4f	4ff\ 4aa	.	.	4g/	.	4b`/	.	4G\	-son	4g`\	-son	4g\	e-	2.r	2.r	4bb`\	.	4ddd`\	.
*clefG2	*	*	*	*	*	*	*	*	*	*	*	*	*	*	*	*	*	*	*
8cc/L	8aa\L	.	.	8d/L	.	(8b/L	.	4r	.	(8dd\L	e-	(8b\L	.	.	.	(8bb\L	.	(8ddd\L	.
8a/	8ff\	.	.	8B/	.	8g/)	.	.	.	8b\J)	.	8g\J)	.	.	.	8gg\)	.	8bb\)	.
8b-/	8gg\	.	.	8c/	.	(8a/	.	4r	.	(8cc\L	-lei-	(8a\L	-lei-	.	.	(8aa\	.	(8ccc\	.
8g/J	8ee\J	.	.	8A/J	.	8f#/J)	.	.	.	8a\J)	.	8f#\J)	.	.	.	8ff#\J)	.	8aa\J)	.
=70	=70	=70	=70	=70	=70	=70	=70	=70	=70	=70	=70	=70	=70	=70	=70	=70	=70	=70	=70
*clefF4	*	*	*	*	*	*	*	*	*	*	*	*	*	*	*	*	*	*	*
4C\ 4c	4ff\	.	.	4B/	.	4g`/	.	4D\	Ky-	4g`\	-son	4g\	-son	2.r	2.r	2gg\	.	2bb\	.
!	!	!	!	!	!	!	!	!	!	!LO:TX:t=P:problem=mixed beam	!	!LO:TX:t=P:problem=mixed beam	!	!	!	!	!	!	!
4r	8aa\L 8ccc	.	.	8b\L	.	(8dd\L	.	4D\	-ri-	(8b/L	e-	(8dd\L	Ky-	.	.	.	.	.	.
.	8cc\	.	.	8g\	.	8b\)	.	.	.	8d/J)	.	8d\J)	.	.	.	.	.	.	.
!	!	!	!	!	!	!	!	!	!	!	!	!LO:TX:t=P:problem=mixed beam	!	!	!	!	!	!	!
4C\ 4c	8gg\ 8bb-	.	.	8a\	.	(8cc\	.	4D\	-e	(8a\L	-lei-	(8cc\L	-rie	.	.	4aa\	.	4ccc\	.
.	8cc\J	.	.	8f#\J	.	8a\J)	.	.	.	8d\J)	.	8d\J)	.	.	.	.	.	.	.
!	!	!	!	!	!	!	!	!	!	!	!	!	!	!	!	!LO:LB:g=original	!	!	!
=71	=71	=71	=71	=71	=71	=71	=71	=71	=71	=71	=71	=71	=71	=71	=71	=71	=71	=71	=71
4F\ 4f	4ff\ 4aa	.	.	4g/	.	4b`/	.	4G\	le-	4g\	-son	4b\	e-	2.r	2.r	4bb`\	.	4ddd\	.
*clefG2	*	*	*	*	*	*	*	*	*	*	*	*	*	*	*	*	*	*	*
8cc/L	8aa\L	.	.	8d/L	.	(8b/L	.	4G\	-i-	(8dd\L	e-	(8cc\L	.	.	.	(8bb\L	.	8ddd\L	.
8a/	8ff\	.	.	8B/	.	8g/)	.	.	.	8b\J)	.	8g\J)	.	.	.	8gg\)	.	8bb\	.
8b-/	8gg\	.	.	8c/	.	(8a/	.	4F#\	-son	(8cc\L	-lei-	(8a\L	-lei-	.	.	(8aa\	.	8ccc\	.
8g/J	8ee\J	.	.	8A/J	.	8f#/J)	.	.	.	8a\J)	.	8f#\J)	.	.	.	8ff#\J)	.	8aa\J	.
=72	=72	=72	=72	=72	=72	=72	=72	=72	=72	=72	=72	=72	=72	=72	=72	=72	=72	=72	=72
*clefF4	*	*	*	*	*	*	*	*	*	*	*	*	*	*	*	*	*	*	*
*	*^	*	*	*	*	*	*	*	*	*	*	*	*	*	*	*	*	*	*
!	!LO:TX:a:t=Tutti	!	!	!	!	!	!	!	!	!	!	!	!	!	!	!	!	!	!	!
4FF/ 4C 4F	4ff/	4a\ 4cc	.	.	4B/	.	4g`/	.	4G\	Ky-	4b\	-son	4g\	-son	4B/	4g\	4gg\	.	4bb\	.
4FF/ 4C 4F	4ff/	4a\ 4cc	.	.	4G/ 4d 4b	.	4gg`\	.	4G\	-rie	4dd\	e-	4gg\	e-	4G/	4g\	4gg\	.	4bb\	.
4FF/ 4C 4F	4ff/	4a\ 4cc	.	.	4G/ 4d 4b	.	4gg`\	.	4G\	lei-	4dd\	-lei-	4gg\	-lei-	4G/	4g\	4gg\	.	4bb\	.
=73	=73	=73	=73	=73	=73	=73	=73	=73	=73	=73	=73	=73	=73	=73	=73	=73	=73	=73	=73	=73
!	!	!	!	!	!	!	!LO:TX:a:t=73 Taktoso	!	!	!	!	!	!	!	!	!	!LO:TX:a:t=Taktoso 73	!	!	!
2FF/ 2C 2F	2ff/	2a\ 2cc	.	.	2G/ 2d 2b	.	2b\ 2gg	.	2G\	-son.	2b\	-son.	2gg\	-son.	2G/	2g\	2.gg\	.	2bb\	.
!	!LO:TX:a:t=Tak\n73\ntoso	!	!	!	!	!	!	!	!	!	!	!	!	!	!	!	!	!	!	!
!	!LO:TX:a:t=Tak\n73\ntoso	!	!	!	!LO:TX:a:t=73	!	!	!	!	!	!	!	!	!	!	!LO:TX:a:t=73	!	!	!LO:TX:a:t=Taktoso 73	!
4ryy	4r	4ryy	.	.	4r	.	4r	.	4r	.	4r	.	4r	.	4r	4ryy	.	.	4r	.
*	*v	*v	*	*	*	*	*	*	*	*	*	*	*	*	*	*	*	*	*	*
==	==	==	==	==	==	==	==	==	==	==	==	==	==	==	==	==	==	==	==
*-	*-	*-	*-	*-	*-	*-	*-	*-	*-	*-	*-	*-	*-	*-	*-	*-	*-	*-	*-
!!!system-decoration: [(s1,s2)][(s3,s4)][(s5,s6,s7)][(s8,s9)]{(s10,s11)}
!!!ENC: Tomasz Grochalski
!!!END: 2020-09-15
!!!ENC: Jan Barakat
!!!END: 2022-01-26
!!!YEC: Copyright 2022 Narodowy Instytut Fryderyka Chopina (https://polishscores.org)
!!!YEM: License CC-BY-4.0 (https://creativecommons.org/licenses/by/4.0)
